tests/data/icc/UP2516D #1 2022-03-20 02-08 D6500 2.2 F-S XYZLUT+MTX.cal
CAL    

DESCRIPTOR "Argyll Device Calibration Curves"
ORIGINATOR "Argyll dispcal"
CREATED "Sun Mar 20 02:15:01 2022"
DEVICE_CLASS "DISPLAY"
COLOR_REP "RGB"
VIDEO_LUT_CALIBRATION_POSSIBLE "YES"
TV_OUTPUT_ENCODING "NO"
DEVICE_TYPE "n"
TARGET_WHITE_XYZ "110.651301 116.454003 126.646824"
TARGET_GAMMA "2.2"
DEGREE_OF_BLACK_OUTPUT_OFFSET "1.0"
BLACK_POINT_CORRECTION "0.26527"
BLACK_NEUTRAL_BLEND_RATE "4.0"
QUALITY "low"

BEGIN_ARGYLL_DISPCAL_ARGS
b'-v2 -d1 -c1 -yn -P0.4982473710565849,0.5571428571428572,1.4894179894179895 -X "Dell, DELL UP2516D (i1 Pro 2) 08.2020.ccss" -ql -t6500 -g2.2 -f1.0 -A4.0'
END_ARGYLL_DISPCAL_ARGS


NUMBER_OF_FIELDS 4
BEGIN_DATA_FORMAT
RGB_I RGB_R RGB_G RGB_B
END_DATA_FORMAT

NUMBER_OF_SETS 256
BEGIN_DATA
0.00000000 0.02006160 0.00994788 0.00000000
0.00392157 0.02260720 0.01259870 0.00000000
0.00784314 0.02520810 0.01530600 0.00187326
0.01176470 0.02786600 0.01807160 0.00535553
0.01568630 0.03058300 0.02089760 0.00891077
0.01960780 0.03336090 0.02378580 0.01254130
0.02352940 0.03620180 0.02673830 0.01624960
0.02745100 0.03910790 0.02975740 0.02003810
0.03137250 0.04208150 0.03284520 0.02390950
0.03529410 0.04512500 0.03600420 0.02786640
0.03921570 0.04824080 0.03923690 0.03190140
0.04313730 0.05143150 0.04254580 0.03600040
0.04705880 0.05469980 0.04593090 0.04014150
0.05098040 0.05804500 0.04939110 0.04430360
0.05490200 0.06146130 0.05291500 0.04846920
0.05882350 0.06494140 0.05649480 0.05262200
0.06274510 0.06847780 0.06012830 0.05675240
0.06666670 0.07206080 0.06380800 0.06085910
0.07058820 0.07568090 0.06752390 0.06494320
0.07450980 0.07933250 0.07126660 0.06900150
0.07843140 0.08301000 0.07502540 0.07302630
0.08235290 0.08670790 0.07879000 0.07701570
0.08627450 0.09041680 0.08254920 0.08097470
0.09019610 0.09412960 0.08629530 0.08491140
0.09411760 0.09784270 0.09002830 0.08883280
0.09803920 0.10155300 0.09375680 0.09274510
0.10196100 0.10526000 0.09748530 0.09664470
0.10588200 0.10896400 0.10121300 0.10052900
0.10980400 0.11266800 0.10493700 0.10440000
0.11372500 0.11637800 0.10865900 0.10826600
0.11764700 0.12010000 0.11237400 0.11212600
0.12156900 0.12383500 0.11608900 0.11597700
0.12549000 0.12758300 0.11980600 0.11980500
0.12941200 0.13134500 0.12352700 0.12359900
0.13333300 0.13511500 0.12724900 0.12736200
0.13725500 0.13888900 0.13096900 0.13110300
0.14117600 0.14266900 0.13468100 0.13482600
0.14509800 0.14644900 0.13837900 0.13854300
0.14902000 0.15022200 0.14207600 0.14224900
0.15294100 0.15399200 0.14577900 0.14594700
0.15686300 0.15776300 0.14949100 0.14964800
0.16078400 0.16153600 0.15321800 0.15335000
0.16470600 0.16531300 0.15695900 0.15705800
0.16862700 0.16909200 0.16072000 0.16077400
0.17254900 0.17287200 0.16450900 0.16449900
0.17647100 0.17666600 0.16833000 0.16823400
0.18039200 0.18047400 0.17218300 0.17197200
0.18431400 0.18429700 0.17605600 0.17571900
0.18823500 0.18814200 0.17994900 0.17947600
0.19215700 0.19201000 0.18385800 0.18324800
0.19607800 0.19589800 0.18778600 0.18703200
0.20000000 0.19980300 0.19173300 0.19083600
0.20392200 0.20373000 0.19569000 0.19466600
0.20784300 0.20767400 0.19964900 0.19852100
0.21176500 0.21163400 0.20361000 0.20240600
0.21568600 0.21560900 0.20756200 0.20631300
0.21960800 0.21960000 0.21150100 0.21023200
0.22352900 0.22359500 0.21542200 0.21416200
0.22745100 0.22759400 0.21932300 0.21809900
0.23137300 0.23159700 0.22319000 0.22203100
0.23529400 0.23559500 0.22703100 0.22595100
0.23921600 0.23958200 0.23085200 0.22985900
0.24313700 0.24357100 0.23465300 0.23375000
0.24705900 0.24756000 0.23842900 0.23762400
0.25098000 0.25154000 0.24218400 0.24147000
0.25490200 0.25551100 0.24592400 0.24528600
0.25882400 0.25947000 0.24965000 0.24907600
0.26274500 0.26341500 0.25337700 0.25284200
0.26666700 0.26734700 0.25711000 0.25659400
0.27058800 0.27126300 0.26085000 0.26033400
0.27451000 0.27515600 0.26459600 0.26406800
0.27843100 0.27902400 0.26835200 0.26779000
0.28235300 0.28286500 0.27212500 0.27150100
0.28627500 0.28668700 0.27591000 0.27521700
0.29019600 0.29049400 0.27969800 0.27893900
0.29411800 0.29428700 0.28347700 0.28265400
0.29803900 0.29806400 0.28725600 0.28636000
0.30196100 0.30182700 0.29104600 0.29005100
0.30588200 0.30560400 0.29483700 0.29372600
0.30980400 0.30939500 0.29862100 0.29739700
0.31372500 0.31319300 0.30239500 0.30106400
0.31764700 0.31700000 0.30615600 0.30473200
0.32156900 0.32081800 0.30991800 0.30840100
0.32549000 0.32465100 0.31367900 0.31207000
0.32941200 0.32850800 0.31744000 0.31573900
0.33333300 0.33238600 0.32121000 0.31942800
0.33725500 0.33628600 0.32499200 0.32314900
0.34117600 0.34020600 0.32878600 0.32690200
0.34509800 0.34414900 0.33259900 0.33069000
0.34902000 0.34811400 0.33643400 0.33451600
0.35294100 0.35209500 0.34028900 0.33838000
0.35686300 0.35608500 0.34416400 0.34228100
0.36078400 0.36008400 0.34805300 0.34620700
0.36470600 0.36409200 0.35195600 0.35016300
0.36862700 0.36810300 0.35587100 0.35413400
0.37254900 0.37212000 0.35978000 0.35811200
0.37647100 0.37612900 0.36368400 0.36207900
0.38039200 0.38012900 0.36757600 0.36603200
0.38431400 0.38412400 0.37145100 0.36996600
0.38823500 0.38811200 0.37530400 0.37387100
0.39215700 0.39208900 0.37913300 0.37773200
0.39607800 0.39604900 0.38293800 0.38155300
0.40000000 0.39999600 0.38671200 0.38536300
0.40392200 0.40392200 0.39044700 0.38916800
0.40784300 0.40782000 0.39414400 0.39296500
0.41176500 0.41168600 0.39784100 0.39675000
0.41568600 0.41554400 0.40155300 0.40052600
0.41960800 0.41942000 0.40527800 0.40429800
0.42352900 0.42331100 0.40901300 0.40806400
0.42745100 0.42720700 0.41275600 0.41183500
0.43137300 0.43110300 0.41651300 0.41561200
0.43529400 0.43499700 0.42028500 0.41939800
0.43921600 0.43889200 0.42407400 0.42319000
0.44313700 0.44278700 0.42788400 0.42698700
0.44705900 0.44667900 0.43171200 0.43077900
0.45098000 0.45056900 0.43554400 0.43456100
0.45490200 0.45445200 0.43938100 0.43833200
0.45882400 0.45832900 0.44322800 0.44209500
0.46274500 0.46221000 0.44708200 0.44585900
0.46666700 0.46608700 0.45093300 0.44962000
0.47058800 0.46995900 0.45477900 0.45338000
0.47451000 0.47382700 0.45863500 0.45713500
0.47843100 0.47770200 0.46249500 0.46088500
0.48235300 0.48158000 0.46636000 0.46463800
0.48627500 0.48545600 0.47022800 0.46839400
0.49019600 0.48933000 0.47410000 0.47215300
0.49411800 0.49320600 0.47798200 0.47591600
0.49803900 0.49708200 0.48187200 0.47968100
0.50196100 0.50095900 0.48577000 0.48344500
0.50588200 0.50483700 0.48967800 0.48721000
0.50980400 0.50871600 0.49359100 0.49097400
0.51372500 0.51260100 0.49749800 0.49473800
0.51764700 0.51649200 0.50140000 0.49849200
0.52156900 0.52038500 0.50529700 0.50223900
0.52549000 0.52428200 0.50918800 0.50598000
0.52941200 0.52818000 0.51307000 0.50971800
0.53333300 0.53208200 0.51694000 0.51346300
0.53725500 0.53598500 0.52080200 0.51720900
0.54117600 0.53988900 0.52465900 0.52094300
0.54509800 0.54379200 0.52852600 0.52466900
0.54902000 0.54770500 0.53239400 0.52838200
0.55294100 0.55162600 0.53626100 0.53208900
0.55686300 0.55554500 0.54012700 0.53579800
0.56078400 0.55946800 0.54398800 0.53951600
0.56470600 0.56338900 0.54784900 0.54323500
0.56862700 0.56730700 0.55171400 0.54695200
0.57254900 0.57121800 0.55557400 0.55068600
0.57647100 0.57512000 0.55942300 0.55443100
0.58039200 0.57900700 0.56327900 0.55817800
0.58431400 0.58288900 0.56713700 0.56192400
0.58823500 0.58679300 0.57098900 0.56566700
0.59215700 0.59071100 0.57484000 0.56940500
0.59607800 0.59463700 0.57869600 0.57313600
0.60000000 0.59856500 0.58256000 0.57686900
0.60392200 0.60249700 0.58643400 0.58060800
0.60784300 0.60643500 0.59030700 0.58435400
0.61176500 0.61037600 0.59417500 0.58810600
0.61568600 0.61431300 0.59804000 0.59188200
0.61960800 0.61824300 0.60190000 0.59568300
0.62352900 0.62216900 0.60576900 0.59950300
0.62745100 0.62609400 0.60964900 0.60333100
0.63137300 0.63003000 0.61353100 0.60717100
0.63529400 0.63397400 0.61741400 0.61102400
0.63921600 0.63791700 0.62130000 0.61489800
0.64313700 0.64185500 0.62518400 0.61878600
0.64705900 0.64579200 0.62906700 0.62268000
0.65098000 0.64973200 0.63293600 0.62656200
0.65490200 0.65367300 0.63678100 0.63041700
0.65882400 0.65760400 0.64058900 0.63424400
0.66274500 0.66151300 0.64435800 0.63804900
0.66666700 0.66538700 0.64808600 0.64187000
0.67058800 0.66922300 0.65179400 0.64571300
0.67451000 0.67302100 0.65552400 0.64957900
0.67843100 0.67681400 0.65928000 0.65345700
0.68235300 0.68064400 0.66305900 0.65733300
0.68627500 0.68451000 0.66685700 0.66120500
0.69019600 0.68841200 0.67066300 0.66507300
0.69411800 0.69234100 0.67446700 0.66893900
0.69803900 0.69628500 0.67826100 0.67280200
0.70196100 0.70024100 0.68204900 0.67666300
0.70588200 0.70420400 0.68582500 0.68051900
0.70980400 0.70817500 0.68959200 0.68436900
0.71372500 0.71215500 0.69334800 0.68822300
0.71764700 0.71614300 0.69709400 0.69208700
0.72156900 0.72013600 0.70083700 0.69595200
0.72549000 0.72413300 0.70458100 0.69982200
0.72941200 0.72813300 0.70832400 0.70368900
0.73333300 0.73213600 0.71206800 0.70755700
0.73725500 0.73614200 0.71580500 0.71142200
0.74117600 0.74015100 0.71953000 0.71528100
0.74509800 0.74414900 0.72324400 0.71913000
0.74902000 0.74813800 0.72694700 0.72295900
0.75294100 0.75212100 0.73064100 0.72677100
0.75686300 0.75609700 0.73434000 0.73056600
0.76078400 0.76006300 0.73804800 0.73434600
0.76470600 0.76401400 0.74176100 0.73810900
0.76862700 0.76795100 0.74547300 0.74186600
0.77254900 0.77187700 0.74917800 0.74561700
0.77647100 0.77579100 0.75289100 0.74937300
0.78039200 0.77970700 0.75661300 0.75314000
0.78431400 0.78362300 0.76035000 0.75690900
0.78823500 0.78753300 0.76410200 0.76066400
0.79215700 0.79143600 0.76786200 0.76439400
0.79607800 0.79532300 0.77161600 0.76811900
0.80000000 0.79918400 0.77535600 0.77185800
0.80392200 0.80300900 0.77909600 0.77560700
0.80784300 0.80681300 0.78287300 0.77935800
0.81176500 0.81062900 0.78668900 0.78311200
0.81568600 0.81445800 0.79053500 0.78687000
0.81960800 0.81828800 0.79440000 0.79063400
0.82352900 0.82211500 0.79827700 0.79440100
0.82745100 0.82594500 0.80216800 0.79817400
0.83137300 0.82978100 0.80607600 0.80195800
0.83529400 0.83362500 0.80999800 0.80575100
0.83921600 0.83747800 0.81392200 0.80955700
0.84313700 0.84134500 0.81784300 0.81336900
0.84705900 0.84522700 0.82176000 0.81717800
0.85098000 0.84912500 0.82567000 0.82098500
0.85490200 0.85303800 0.82956800 0.82480900
0.85882400 0.85695300 0.83345300 0.82864700
0.86274500 0.86086300 0.83734200 0.83249000
0.86666700 0.86479500 0.84123800 0.83634500
0.87058800 0.86875500 0.84513400 0.84020300
0.87451000 0.87273100 0.84902800 0.84405400
0.87843100 0.87671400 0.85291600 0.84789900
0.88235300 0.88070300 0.85679800 0.85173200
0.88627500 0.88469100 0.86067000 0.85555000
0.89019600 0.88867700 0.86452700 0.85934600
0.89411800 0.89265400 0.86837900 0.86311800
0.89803900 0.89663600 0.87222200 0.86686300
0.90196100 0.90061900 0.87605000 0.87057600
0.90588200 0.90460500 0.87985900 0.87426100
0.90980400 0.90859200 0.88364700 0.87791200
0.91372500 0.91257400 0.88742000 0.88152800
0.91764700 0.91655800 0.89117500 0.88510800
0.92156900 0.92054100 0.89491500 0.88866600
0.92549000 0.92451500 0.89864400 0.89220000
0.92941200 0.92848900 0.90236900 0.89570800
0.93333300 0.93246500 0.90608100 0.89920200
0.93725500 0.93643100 0.90979300 0.90268300
0.94117600 0.94039800 0.91350100 0.90615300
0.94509800 0.94436300 0.91720800 0.90961400
0.94902000 0.94833100 0.92091000 0.91306400
0.95294100 0.95230100 0.92460900 0.91650500
0.95686300 0.95627200 0.92830400 0.91993600
0.96078400 0.96024300 0.93199700 0.92335500
0.96470600 0.96421200 0.93568600 0.92675800
0.96862700 0.96817900 0.93936800 0.93014300
0.97254900 0.97214600 0.94304000 0.93350900
0.97647100 0.97611300 0.94670200 0.93685700
0.98039200 0.98008100 0.95035400 0.94018700
0.98431400 0.98405000 0.95399600 0.94349800
0.98823500 0.98801900 0.95762800 0.94679100
0.99215700 0.99198900 0.96125000 0.95006700
0.99607800 0.99595900 0.96486200 0.95332400
1.00000000 0.99992900 0.96846400 0.95656500
END_DATA
CAL    

DESCRIPTOR "Argyll Calibration options and model"
ORIGINATOR "Argyll dispcal"
CREATED "Sun Mar 20 02:15:01 202"

NUMBER_OF_FIELDS 3
BEGIN_DATA_FORMAT
R_P G_P B_P
END_DATA_FORMAT

NUMBER_OF_SETS 32
BEGIN_DATA
0.000374889 0.001052060 0.001857010
0.999625000 0.998948000 0.998143000
1.627012000 1.559247000 1.442340000
0.560547000 0.585784000 0.564650000
0.091664600 0.067429600 0.116731000
0.083228100 0.096122200 0.135029000
0.073279200 0.101460000 0.116494000
0.125890000 0.150397000 0.087982800
0.097136200 0.078686200 0.070472900
0.079961800 0.059780800 0.068654500
0.055251200 0.050065700 0.058662400
0.051533200 0.049980900 0.053461000
0.048925300 0.052888000 0.051344300
0.045481500 0.045963000 0.045763200
0.041480400 0.034709700 0.044691000
0.039634300 0.047399000 0.050833200
0.038590200 0.038515500 0.036374500
0.039000300 0.042731500 0.034642400
0.037358700 0.033098600 0.030945400
0.034502300 0.037385600 0.033644000
0.026964000 0.031112400 0.030559200
0.029547700 0.029948700 0.028220700
0.023958300 0.033348700 0.025086200
0.024713000 0.032859600 0.023250400
0.026638100 0.031325800 0.025255500
0.024713100 0.030112200 0.024325200
0.024079300 0.025873000 0.022350200
0.022632900 0.024623300 0.021797600
0.021774900 0.025905400 0.021090200
0.020757900 0.028119200 0.020220900
0.021640700 0.031129100 0.018856400
0.017944200 0.028452800 0.018033300
END_DATA
