tests/data/icc/UP2516D #1 2022-03-20 02-08 D6500 2.2 F-S XYZLUT+MTX.bpc.ti3
CTI3   

DESCRIPTOR "Argyll Calibration Target chart information 3"
ORIGINATOR "Argyll dispread"
CREATED "Sun Mar 20 02:15:01 2022"
DEVICE_CLASS "DISPLAY"
SINGLE_DIM_STEPS "5"
COMP_GREY_STEPS "52"
MULTI_DIM_STEPS "5"
COLOR_REP "RGB_XYZ"
TARGET_INSTRUMENT "X-Rite i1 DisplayPro, ColorMunki Display"
DISPLAY_TYPE_REFRESH "NO"
DISPLAY_TYPE_BASE_ID "1"
INSTRUMENT_TYPE_SPECTRAL "NO"
LUMINANCE_XYZ_CDM2 "109.368305 115.023001 124.177065"
NORMALIZED_TO_Y_100 "YES"
VIDEO_LUT_CALIBRATION_POSSIBLE "YES"

BEGIN_ARGYLL_COLPROF_ARGS
b'b\'-v -qh -aX -bn -C "No copyright. Created with DisplayCAL 3.8.9.3 and Argyll CMS 2.3.0" -A "Dell, Inc."\''
END_ARGYLL_COLPROF_ARGS

OBSERVER "1931_2"
USE_BLACK_POINT_COMPENSATION "NO"
BLACK_POINT_CORRECTION "0.0"
HIRES_B2A "YES"
HIRES_B2A_SIZE "-1"
SMOOTH_B2A "YES"
PATCH_SEQUENCE "OPTIMIZE_DISPLAY_RESPONSE_DELAY"

NUMBER_OF_FIELDS 7
BEGIN_DATA_FORMAT
SAMPLE_ID RGB_R RGB_G RGB_B XYZ_X XYZ_Y XYZ_Z
END_DATA_FORMAT

NUMBER_OF_SETS 175
BEGIN_DATA
1 100.0000 100.0000 100.0000 95.08386 100.0000 107.9585
2 100.0000 100.0000 75.00000 86.49886 97.59069 62.11123
3 100.0000 100.0000 100.0000 95.08386 100.0000 107.9585
4 100.0000 100.0000 100.0000 95.15699 100.0276 107.9583
5 0.000000 0.000000 0.000000 0.151446 0.159276 0.171952
6 25.00000 0.000000 0.000000 2.774646 1.351913 0.302747
7 50.00000 0.000000 0.000000 12.51513 5.778332 0.431227
8 75.00000 0.000000 0.000000 30.06160 13.75098 0.660743
9 100.0000 0.000000 0.000000 57.16318 26.05824 1.017955
10 100.0000 0.000000 25.00000 58.03429 26.29395 5.878911
11 100.0000 25.00000 25.00000 59.12301 29.63160 6.200872
12 100.0000 50.00000 25.00000 62.36043 41.30880 7.346081
13 100.0000 75.00000 25.00000 68.31530 62.98845 9.309848
14 0.000000 0.000000 25.00000 1.022409 0.391515 4.802544
15 25.00000 0.000000 25.00000 3.654189 1.585270 5.028338
16 75.00000 0.000000 100.0000 49.01840 18.82120 101.0718
17 100.0000 0.000000 100.0000 75.96641 31.07446 101.4020
18 1.960800 1.960800 1.960800 0.177623 0.184029 0.185678
19 3.921600 3.921600 3.921600 0.223345 0.240133 0.243726
20 5.882400 5.882400 5.882400 0.332542 0.340326 0.368545
21 7.843100 7.843100 7.843100 0.482617 0.509842 0.601643
22 9.803900 9.803900 9.803900 0.694424 0.731036 0.853480
23 11.76500 11.76500 11.76500 0.988968 1.038021 1.180730
24 13.72600 13.72600 13.72600 1.306457 1.365686 1.541779
25 15.68600 15.68600 15.68600 1.771490 1.845326 2.061012
26 17.64700 17.64700 17.64700 2.243081 2.387477 2.645813
27 19.60800 19.60800 19.60800 2.734443 2.904283 3.215026
28 21.56900 21.56900 21.56900 3.342795 3.546095 3.916817
29 23.52900 23.52900 23.52900 4.019615 4.252877 4.691272
30 27.45100 27.45100 27.45100 5.593926 5.969649 6.369296
31 29.41200 29.41200 29.41200 6.429196 6.743248 7.338131
32 31.37300 31.37300 31.37300 7.400916 7.770179 8.450208
33 33.33300 33.33300 33.33300 8.461786 8.886916 9.690567
34 35.29400 35.29400 35.29400 9.697671 10.17827 11.10803
35 37.25500 37.25500 37.25500 10.93588 11.49578 12.55869
36 39.21600 39.21600 39.21600 12.24856 12.90037 14.09757
37 41.17600 41.17600 41.17600 13.67275 14.41254 15.76338
38 43.13700 43.13700 43.13700 15.11517 15.97907 17.32122
39 45.09800 45.09800 45.09800 16.65099 17.41196 19.06906
40 47.05900 47.05900 47.05900 18.22387 19.10685 20.95662
41 49.02000 49.02000 49.02000 19.86672 20.82926 22.82894
42 50.98000 50.98000 50.98000 21.68456 22.70692 24.89369
43 52.94100 52.94100 52.94100 23.58869 24.83679 26.78059
44 54.90200 54.90200 54.90200 25.71734 26.96141 29.19041
45 56.86300 56.86300 56.86300 27.80675 29.22107 31.66992
46 58.82400 58.82400 58.82400 29.94202 31.54440 34.22145
47 60.78400 60.78400 60.78400 32.14803 33.95779 36.61351
48 62.74500 62.74500 62.74500 34.45555 36.43629 39.34439
49 64.70600 64.70600 64.70600 36.76308 38.91479 42.07528
50 66.66700 66.66700 66.66700 39.17473 41.48420 44.80684
51 68.62700 68.62700 68.62700 41.79892 44.17303 47.70798
52 70.58800 70.58800 70.58800 44.68391 47.18110 51.12013
53 72.54900 72.54900 72.54900 47.35446 49.77186 54.18859
54 76.47100 76.47100 76.47100 53.46364 56.18641 60.84745
55 78.43100 78.43100 78.43100 56.56729 59.54938 64.77150
56 80.39200 80.39200 80.39200 59.08046 62.18391 67.84189
57 82.35300 82.35300 82.35300 62.33725 65.56550 71.59579
58 84.31400 84.31400 84.31400 65.61818 69.04699 75.52039
59 86.27500 86.27500 86.27500 69.03427 72.68269 79.44646
60 88.23500 88.23500 88.23500 72.44348 76.35498 83.54246
61 90.19600 90.19600 90.19600 75.99208 80.11910 87.80814
62 92.15700 92.15700 92.15700 79.34910 84.04004 91.06218
63 94.11800 94.11800 94.11800 83.75996 88.29687 95.15996
64 96.07800 96.07800 96.07800 87.71020 91.92787 99.08184
65 98.03900 98.03900 98.03900 91.29773 95.83267 102.3338
66 25.00000 25.00000 0.000000 3.720327 4.564692 0.595817
67 50.00000 25.00000 0.000000 13.45850 9.009824 0.725294
68 75.00000 25.00000 0.000000 31.11333 17.02559 0.955543
69 100.0000 25.00000 0.000000 58.21270 29.33476 1.312959
70 100.0000 50.00000 0.000000 61.23186 40.73187 2.360998
71 50.00000 50.00000 0.000000 16.82207 20.65488 1.787352
72 75.00000 50.00000 0.000000 34.21448 28.44305 2.004516
73 25.00000 50.00000 0.000000 6.967849 16.17042 1.656239
74 25.00000 75.00000 0.000000 12.87229 37.62450 3.619054
75 50.00000 75.00000 0.000000 22.68549 42.14468 3.756355
76 75.00000 75.00000 0.000000 40.39292 50.20564 3.988030
77 100.0000 75.00000 0.000000 67.41078 62.49448 4.346706
78 25.00000 100.0000 0.000000 21.68616 69.66113 6.552492
79 50.00000 100.0000 0.000000 31.68645 74.20081 6.682360
80 75.00000 100.0000 0.000000 49.18422 82.07993 6.906082
81 100.0000 100.0000 0.000000 76.20161 94.36874 7.262534
82 100.0000 100.0000 25.00000 77.07269 94.79936 12.21324
83 50.00000 0.000000 25.00000 13.44173 6.030458 5.283215
84 50.00000 25.00000 50.00000 17.73821 10.26454 23.12653
85 0.000000 25.00000 0.000000 1.024060 3.343512 0.561100
86 0.000000 25.00000 25.00000 1.921204 3.626170 5.270982
87 25.49000 25.49000 25.49000 4.804765 5.058517 5.572734
88 50.00000 25.00000 25.00000 14.42407 9.332209 5.518511
89 75.00000 25.00000 25.00000 32.01437 17.32515 5.815275
90 0.000000 50.00000 0.000000 4.171561 14.85970 1.616062
91 0.000000 50.00000 25.00000 5.188360 15.30875 6.361010
92 25.00000 50.00000 25.00000 7.942689 16.59266 6.550804
93 50.00000 50.00000 25.00000 17.76278 21.11301 6.721156
94 75.00000 50.00000 25.00000 35.29470 29.05551 6.960693
95 0.000000 75.00000 0.000000 10.14932 36.34139 3.579653
96 0.000000 75.00000 25.00000 11.07040 36.86152 8.271383
97 25.00000 75.00000 25.00000 13.85766 38.30806 8.526153
98 50.00000 75.00000 25.00000 23.71571 42.69335 8.620655
99 75.00000 75.00000 25.00000 41.32251 50.76276 8.923468
100 0.000000 100.0000 0.000000 18.96248 68.37800 6.509655
101 0.000000 100.0000 25.00000 19.85783 68.83497 11.22596
102 25.00000 100.0000 25.00000 22.61234 70.11889 11.41661
103 50.00000 100.0000 25.00000 32.69145 74.68633 11.57363
104 75.00000 100.0000 25.00000 50.41302 82.74767 11.87312
105 0.000000 0.000000 50.00000 4.237826 1.250231 22.05116
106 25.00000 0.000000 50.00000 6.904575 2.451834 22.38563
107 50.00000 0.000000 50.00000 16.68317 6.887841 22.81016
108 75.00000 0.000000 50.00000 34.26650 14.88440 23.03008
109 100.0000 0.000000 50.00000 61.42535 27.21023 23.75629
110 100.0000 0.000000 75.00000 67.44810 28.81856 55.72599
111 100.0000 25.00000 75.00000 68.46444 32.19809 55.94224
112 75.00000 0.000000 25.00000 31.06871 14.04389 5.484624
113 75.00000 25.00000 50.00000 35.42288 18.29063 23.55253
114 100.0000 25.00000 50.00000 62.33650 30.49062 23.92159
115 25.00000 25.00000 50.00000 7.937862 5.793629 22.87994
116 25.00000 50.00000 50.00000 11.20085 17.52979 23.92477
117 75.00000 50.00000 50.00000 38.61885 29.95756 24.44824
118 100.0000 50.00000 50.00000 65.63986 42.22075 25.17285
119 100.0000 50.00000 75.00000 71.56047 43.88107 56.95421
120 25.00000 75.00000 50.00000 17.18276 39.27263 25.87034
121 50.00000 75.00000 50.00000 27.17680 43.78642 26.32110
122 75.00000 75.00000 50.00000 44.81022 51.85653 26.75152
123 100.0000 75.00000 50.00000 71.61974 63.96355 27.10867
124 100.0000 75.00000 75.00000 77.71973 65.84172 58.95562
125 25.00000 100.0000 50.00000 25.97889 71.08453 28.95952
126 50.00000 100.0000 50.00000 35.96918 75.56146 29.18934
127 75.00000 100.0000 50.00000 53.63249 83.69484 29.61523
128 100.0000 100.0000 50.00000 80.60851 95.95686 30.12413
129 25.00000 0.000000 75.00000 13.03565 4.093429 54.72741
130 50.00000 0.000000 75.00000 22.66338 8.478383 54.72458
131 75.00000 0.000000 75.00000 40.46373 16.56533 55.22679
132 75.00000 25.00000 75.00000 41.59351 19.96909 55.61183
133 75.00000 50.00000 100.0000 53.32192 34.02125 102.4700
134 25.00000 25.00000 75.00000 13.92547 7.407073 54.77432
135 25.00000 50.00000 100.0000 25.77656 21.46518 101.6317
136 0.000000 25.00000 50.00000 5.173651 4.536168 22.59461
137 0.000000 25.00000 75.00000 11.13373 6.149746 54.26755
138 0.000000 50.00000 75.00000 14.31785 17.90493 55.28002
139 25.00000 50.00000 75.00000 17.25358 19.18248 55.78601
140 50.00000 50.00000 75.00000 26.86048 23.58338 55.78356
141 75.00000 50.00000 75.00000 44.66643 31.61011 56.28475
142 74.51000 74.51000 74.51000 50.15520 52.85130 57.60254
143 0.000000 75.00000 75.00000 20.38407 39.67568 57.27907
144 25.00000 75.00000 75.00000 23.13829 40.89709 57.61627
145 50.00000 75.00000 75.00000 33.13924 45.47355 57.95219
146 0.000000 75.00000 50.00000 14.36387 37.98705 25.37093
147 0.000000 100.0000 50.00000 23.08311 69.77125 28.44225
148 0.000000 100.0000 75.00000 29.09271 71.42282 60.09663
149 25.00000 100.0000 75.00000 32.04835 72.86265 60.60510
150 50.00000 100.0000 75.00000 41.87888 77.28401 60.77055
151 75.00000 100.0000 75.00000 59.68220 85.28496 61.60989
152 75.00000 100.0000 100.0000 68.33873 87.81006 106.9506
153 25.00000 0.000000 100.0000 21.53269 6.343783 100.2342
154 50.00000 0.000000 100.0000 31.34299 10.77618 101.0771
155 0.000000 0.000000 75.00000 10.24043 2.846287 54.05114
156 0.000000 0.000000 100.0000 18.84419 5.130919 99.89665
157 0.000000 25.00000 100.0000 19.78354 8.475324 100.2822
158 25.00000 25.00000 100.0000 22.62217 9.740906 101.1273
159 50.00000 25.00000 100.0000 32.48696 14.22672 101.2935
160 75.00000 25.00000 100.0000 50.22749 22.25007 101.9644
161 100.0000 25.00000 100.0000 77.10003 34.44693 102.1250
162 100.0000 50.00000 100.0000 80.21596 46.29220 103.1395
163 50.00000 25.00000 75.00000 23.75798 11.87785 55.10983
164 50.00000 50.00000 100.0000 35.63123 25.98643 101.9678
165 0.000000 50.00000 50.00000 8.426614 16.24536 23.63953
166 0.000000 50.00000 100.0000 23.05334 20.30707 101.2953
167 0.000000 75.00000 100.0000 29.00008 42.14829 103.1271
168 25.00000 75.00000 100.0000 31.93318 43.40003 103.9712
169 50.00000 75.00000 100.0000 41.82573 47.94798 104.1383
170 75.00000 75.00000 100.0000 59.41069 55.98007 104.1334
171 100.0000 75.00000 100.0000 86.24693 68.06204 104.9695
172 0.000000 100.0000 100.0000 37.67347 73.89452 105.7756
173 25.00000 100.0000 100.0000 40.57555 75.08298 106.6190
174 50.00000 100.0000 100.0000 50.60751 79.72275 106.9557
175 100.0000 100.0000 100.0000 95.15699 100.0276 107.9583
END_DATA
CAL    

DESCRIPTOR "Argyll Device Calibration State"
ORIGINATOR "Argyll dispread"
CREATED "Sun Mar 20 02:15:01 2022"
DEVICE_CLASS "DISPLAY"
COLOR_REP "RGB"

BEGIN_ARGYLL_DISPCAL_ARGS
b'b\'-ql -t6500 -g2.2 -f1.0 -A4.0 -d1 -c1 -yn -P0.4982473710565849,0.5571428571428572,1.4894179894179895 -X "Dell, DELL UP2516D (i1 Pro 2) 08.2020.ccss"\''
END_ARGYLL_DISPCAL_ARGS


NUMBER_OF_FIELDS 4
BEGIN_DATA_FORMAT
RGB_I RGB_R RGB_G RGB_B
END_DATA_FORMAT

NUMBER_OF_SETS 256
BEGIN_DATA
0.00000000 0.02006160 0.00994788 0.00000000
0.00392157 0.02260720 0.01259870 0.00000000
0.00784314 0.02520810 0.01530600 0.00187326
0.01176470 0.02786600 0.01807160 0.00535553
0.01568630 0.03058300 0.02089760 0.00891077
0.01960780 0.03336090 0.02378580 0.01254130
0.02352940 0.03620180 0.02673830 0.01624960
0.02745100 0.03910790 0.02975740 0.02003810
0.03137250 0.04208150 0.03284520 0.02390950
0.03529410 0.04512500 0.03600420 0.02786640
0.03921570 0.04824080 0.03923690 0.03190140
0.04313730 0.05143150 0.04254580 0.03600040
0.04705880 0.05469980 0.04593090 0.04014150
0.05098040 0.05804500 0.04939110 0.04430360
0.05490200 0.06146130 0.05291500 0.04846920
0.05882350 0.06494140 0.05649480 0.05262200
0.06274510 0.06847780 0.06012830 0.05675240
0.06666670 0.07206080 0.06380800 0.06085910
0.07058820 0.07568090 0.06752390 0.06494320
0.07450980 0.07933250 0.07126660 0.06900150
0.07843140 0.08301000 0.07502540 0.07302630
0.08235290 0.08670790 0.07879000 0.07701570
0.08627450 0.09041680 0.08254920 0.08097470
0.09019610 0.09412960 0.08629530 0.08491140
0.09411760 0.09784270 0.09002830 0.08883280
0.09803920 0.10155300 0.09375680 0.09274510
0.10196100 0.10526000 0.09748530 0.09664470
0.10588200 0.10896400 0.10121300 0.10052900
0.10980400 0.11266800 0.10493700 0.10440000
0.11372500 0.11637800 0.10865900 0.10826600
0.11764700 0.12010000 0.11237400 0.11212600
0.12156900 0.12383500 0.11608900 0.11597700
0.12549000 0.12758300 0.11980600 0.11980500
0.12941200 0.13134500 0.12352700 0.12359900
0.13333300 0.13511500 0.12724900 0.12736200
0.13725500 0.13888900 0.13096900 0.13110300
0.14117600 0.14266900 0.13468100 0.13482600
0.14509800 0.14644900 0.13837900 0.13854300
0.14902000 0.15022200 0.14207600 0.14224900
0.15294100 0.15399200 0.14577900 0.14594700
0.15686300 0.15776300 0.14949100 0.14964800
0.16078400 0.16153600 0.15321800 0.15335000
0.16470600 0.16531300 0.15695900 0.15705800
0.16862700 0.16909200 0.16072000 0.16077400
0.17254900 0.17287200 0.16450900 0.16449900
0.17647100 0.17666600 0.16833000 0.16823400
0.18039200 0.18047400 0.17218300 0.17197200
0.18431400 0.18429700 0.17605600 0.17571900
0.18823500 0.18814200 0.17994900 0.17947600
0.19215700 0.19201000 0.18385800 0.18324800
0.19607800 0.19589800 0.18778600 0.18703200
0.20000000 0.19980300 0.19173300 0.19083600
0.20392200 0.20373000 0.19569000 0.19466600
0.20784300 0.20767400 0.19964900 0.19852100
0.21176500 0.21163400 0.20361000 0.20240600
0.21568600 0.21560900 0.20756200 0.20631300
0.21960800 0.21960000 0.21150100 0.21023200
0.22352900 0.22359500 0.21542200 0.21416200
0.22745100 0.22759400 0.21932300 0.21809900
0.23137300 0.23159700 0.22319000 0.22203100
0.23529400 0.23559500 0.22703100 0.22595100
0.23921600 0.23958200 0.23085200 0.22985900
0.24313700 0.24357100 0.23465300 0.23375000
0.24705900 0.24756000 0.23842900 0.23762400
0.25098000 0.25154000 0.24218400 0.24147000
0.25490200 0.25551100 0.24592400 0.24528600
0.25882400 0.25947000 0.24965000 0.24907600
0.26274500 0.26341500 0.25337700 0.25284200
0.26666700 0.26734700 0.25711000 0.25659400
0.27058800 0.27126300 0.26085000 0.26033400
0.27451000 0.27515600 0.26459600 0.26406800
0.27843100 0.27902400 0.26835200 0.26779000
0.28235300 0.28286500 0.27212500 0.27150100
0.28627500 0.28668700 0.27591000 0.27521700
0.29019600 0.29049400 0.27969800 0.27893900
0.29411800 0.29428700 0.28347700 0.28265400
0.29803900 0.29806400 0.28725600 0.28636000
0.30196100 0.30182700 0.29104600 0.29005100
0.30588200 0.30560400 0.29483700 0.29372600
0.30980400 0.30939500 0.29862100 0.29739700
0.31372500 0.31319300 0.30239500 0.30106400
0.31764700 0.31700000 0.30615600 0.30473200
0.32156900 0.32081800 0.30991800 0.30840100
0.32549000 0.32465100 0.31367900 0.31207000
0.32941200 0.32850800 0.31744000 0.31573900
0.33333300 0.33238600 0.32121000 0.31942800
0.33725500 0.33628600 0.32499200 0.32314900
0.34117600 0.34020600 0.32878600 0.32690200
0.34509800 0.34414900 0.33259900 0.33069000
0.34902000 0.34811400 0.33643400 0.33451600
0.35294100 0.35209500 0.34028900 0.33838000
0.35686300 0.35608500 0.34416400 0.34228100
0.36078400 0.36008400 0.34805300 0.34620700
0.36470600 0.36409200 0.35195600 0.35016300
0.36862700 0.36810300 0.35587100 0.35413400
0.37254900 0.37212000 0.35978000 0.35811200
0.37647100 0.37612900 0.36368400 0.36207900
0.38039200 0.38012900 0.36757600 0.36603200
0.38431400 0.38412400 0.37145100 0.36996600
0.38823500 0.38811200 0.37530400 0.37387100
0.39215700 0.39208900 0.37913300 0.37773200
0.39607800 0.39604900 0.38293800 0.38155300
0.40000000 0.39999600 0.38671200 0.38536300
0.40392200 0.40392200 0.39044700 0.38916800
0.40784300 0.40782000 0.39414400 0.39296500
0.41176500 0.41168600 0.39784100 0.39675000
0.41568600 0.41554400 0.40155300 0.40052600
0.41960800 0.41942000 0.40527800 0.40429800
0.42352900 0.42331100 0.40901300 0.40806400
0.42745100 0.42720700 0.41275600 0.41183500
0.43137300 0.43110300 0.41651300 0.41561200
0.43529400 0.43499700 0.42028500 0.41939800
0.43921600 0.43889200 0.42407400 0.42319000
0.44313700 0.44278700 0.42788400 0.42698700
0.44705900 0.44667900 0.43171200 0.43077900
0.45098000 0.45056900 0.43554400 0.43456100
0.45490200 0.45445200 0.43938100 0.43833200
0.45882400 0.45832900 0.44322800 0.44209500
0.46274500 0.46221000 0.44708200 0.44585900
0.46666700 0.46608700 0.45093300 0.44962000
0.47058800 0.46995900 0.45477900 0.45338000
0.47451000 0.47382700 0.45863500 0.45713500
0.47843100 0.47770200 0.46249500 0.46088500
0.48235300 0.48158000 0.46636000 0.46463800
0.48627500 0.48545600 0.47022800 0.46839400
0.49019600 0.48933000 0.47410000 0.47215300
0.49411800 0.49320600 0.47798200 0.47591600
0.49803900 0.49708200 0.48187200 0.47968100
0.50196100 0.50095900 0.48577000 0.48344500
0.50588200 0.50483700 0.48967800 0.48721000
0.50980400 0.50871600 0.49359100 0.49097400
0.51372500 0.51260100 0.49749800 0.49473800
0.51764700 0.51649200 0.50140000 0.49849200
0.52156900 0.52038500 0.50529700 0.50223900
0.52549000 0.52428200 0.50918800 0.50598000
0.52941200 0.52818000 0.51307000 0.50971800
0.53333300 0.53208200 0.51694000 0.51346300
0.53725500 0.53598500 0.52080200 0.51720900
0.54117600 0.53988900 0.52465900 0.52094300
0.54509800 0.54379200 0.52852600 0.52466900
0.54902000 0.54770500 0.53239400 0.52838200
0.55294100 0.55162600 0.53626100 0.53208900
0.55686300 0.55554500 0.54012700 0.53579800
0.56078400 0.55946800 0.54398800 0.53951600
0.56470600 0.56338900 0.54784900 0.54323500
0.56862700 0.56730700 0.55171400 0.54695200
0.57254900 0.57121800 0.55557400 0.55068600
0.57647100 0.57512000 0.55942300 0.55443100
0.58039200 0.57900700 0.56327900 0.55817800
0.58431400 0.58288900 0.56713700 0.56192400
0.58823500 0.58679300 0.57098900 0.56566700
0.59215700 0.59071100 0.57484000 0.56940500
0.59607800 0.59463700 0.57869600 0.57313600
0.60000000 0.59856500 0.58256000 0.57686900
0.60392200 0.60249700 0.58643400 0.58060800
0.60784300 0.60643500 0.59030700 0.58435400
0.61176500 0.61037600 0.59417500 0.58810600
0.61568600 0.61431300 0.59804000 0.59188200
0.61960800 0.61824300 0.60190000 0.59568300
0.62352900 0.62216900 0.60576900 0.59950300
0.62745100 0.62609400 0.60964900 0.60333100
0.63137300 0.63003000 0.61353100 0.60717100
0.63529400 0.63397400 0.61741400 0.61102400
0.63921600 0.63791700 0.62130000 0.61489800
0.64313700 0.64185500 0.62518400 0.61878600
0.64705900 0.64579200 0.62906700 0.62268000
0.65098000 0.64973200 0.63293600 0.62656200
0.65490200 0.65367300 0.63678100 0.63041700
0.65882400 0.65760400 0.64058900 0.63424400
0.66274500 0.66151300 0.64435800 0.63804900
0.66666700 0.66538700 0.64808600 0.64187000
0.67058800 0.66922300 0.65179400 0.64571300
0.67451000 0.67302100 0.65552400 0.64957900
0.67843100 0.67681400 0.65928000 0.65345700
0.68235300 0.68064400 0.66305900 0.65733300
0.68627500 0.68451000 0.66685700 0.66120500
0.69019600 0.68841200 0.67066300 0.66507300
0.69411800 0.69234100 0.67446700 0.66893900
0.69803900 0.69628500 0.67826100 0.67280200
0.70196100 0.70024100 0.68204900 0.67666300
0.70588200 0.70420400 0.68582500 0.68051900
0.70980400 0.70817500 0.68959200 0.68436900
0.71372500 0.71215500 0.69334800 0.68822300
0.71764700 0.71614300 0.69709400 0.69208700
0.72156900 0.72013600 0.70083700 0.69595200
0.72549000 0.72413300 0.70458100 0.69982200
0.72941200 0.72813300 0.70832400 0.70368900
0.73333300 0.73213600 0.71206800 0.70755700
0.73725500 0.73614200 0.71580500 0.71142200
0.74117600 0.74015100 0.71953000 0.71528100
0.74509800 0.74414900 0.72324400 0.71913000
0.74902000 0.74813800 0.72694700 0.72295900
0.75294100 0.75212100 0.73064100 0.72677100
0.75686300 0.75609700 0.73434000 0.73056600
0.76078400 0.76006300 0.73804800 0.73434600
0.76470600 0.76401400 0.74176100 0.73810900
0.76862700 0.76795100 0.74547300 0.74186600
0.77254900 0.77187700 0.74917800 0.74561700
0.77647100 0.77579100 0.75289100 0.74937300
0.78039200 0.77970700 0.75661300 0.75314000
0.78431400 0.78362300 0.76035000 0.75690900
0.78823500 0.78753300 0.76410200 0.76066400
0.79215700 0.79143600 0.76786200 0.76439400
0.79607800 0.79532300 0.77161600 0.76811900
0.80000000 0.79918400 0.77535600 0.77185800
0.80392200 0.80300900 0.77909600 0.77560700
0.80784300 0.80681300 0.78287300 0.77935800
0.81176500 0.81062900 0.78668900 0.78311200
0.81568600 0.81445800 0.79053500 0.78687000
0.81960800 0.81828800 0.79440000 0.79063400
0.82352900 0.82211500 0.79827700 0.79440100
0.82745100 0.82594500 0.80216800 0.79817400
0.83137300 0.82978100 0.80607600 0.80195800
0.83529400 0.83362500 0.80999800 0.80575100
0.83921600 0.83747800 0.81392200 0.80955700
0.84313700 0.84134500 0.81784300 0.81336900
0.84705900 0.84522700 0.82176000 0.81717800
0.85098000 0.84912500 0.82567000 0.82098500
0.85490200 0.85303800 0.82956800 0.82480900
0.85882400 0.85695300 0.83345300 0.82864700
0.86274500 0.86086300 0.83734200 0.83249000
0.86666700 0.86479500 0.84123800 0.83634500
0.87058800 0.86875500 0.84513400 0.84020300
0.87451000 0.87273100 0.84902800 0.84405400
0.87843100 0.87671400 0.85291600 0.84789900
0.88235300 0.88070300 0.85679800 0.85173200
0.88627500 0.88469100 0.86067000 0.85555000
0.89019600 0.88867700 0.86452700 0.85934600
0.89411800 0.89265400 0.86837900 0.86311800
0.89803900 0.89663600 0.87222200 0.86686300
0.90196100 0.90061900 0.87605000 0.87057600
0.90588200 0.90460500 0.87985900 0.87426100
0.90980400 0.90859200 0.88364700 0.87791200
0.91372500 0.91257400 0.88742000 0.88152800
0.91764700 0.91655800 0.89117500 0.88510800
0.92156900 0.92054100 0.89491500 0.88866600
0.92549000 0.92451500 0.89864400 0.89220000
0.92941200 0.92848900 0.90236900 0.89570800
0.93333300 0.93246500 0.90608100 0.89920200
0.93725500 0.93643100 0.90979300 0.90268300
0.94117600 0.94039800 0.91350100 0.90615300
0.94509800 0.94436300 0.91720800 0.90961400
0.94902000 0.94833100 0.92091000 0.91306400
0.95294100 0.95230100 0.92460900 0.91650500
0.95686300 0.95627200 0.92830400 0.91993600
0.96078400 0.96024300 0.93199700 0.92335500
0.96470600 0.96421200 0.93568600 0.92675800
0.96862700 0.96817900 0.93936800 0.93014300
0.97254900 0.97214600 0.94304000 0.93350900
0.97647100 0.97611300 0.94670200 0.93685700
0.98039200 0.98008100 0.95035400 0.94018700
0.98431400 0.98405000 0.95399600 0.94349800
0.98823500 0.98801900 0.95762800 0.94679100
0.99215700 0.99198900 0.96125000 0.95006700
0.99607800 0.99595900 0.96486200 0.95332400
1.00000000 0.99992900 0.96846400 0.95656500
END_DATA
