tests/data/sample/issue129/issue129_.cal
CAL    

DESCRIPTOR "Argyll Device Calibration Curves"
ORIGINATOR "Argyll dispcal"
CREATED "Tue Jun  7 19:33:31 2022"
DEVICE_CLASS "DISPLAY"
COLOR_REP "RGB"
VIDEO_LUT_CALIBRATION_POSSIBLE "YES"
TV_OUTPUT_ENCODING "NO"
DEVICE_TYPE "n"
NATIVE_TARGET_WHITE ""
TARGET_WHITE_XYZ "125.716148 131.328074 123.597280"
TARGET_GAMMA "2.2"
DEGREE_OF_BLACK_OUTPUT_OFFSET "1.0"
BLACK_POINT_CORRECTION "0.009704"
BLACK_NEUTRAL_BLEND_RATE "4.0"
QUALITY "low"

BEGIN_ARGYLL_DISPCAL_ARGS
b'-v2 -d1 -c1 -yn -P0.5030090270812437,0.2482837528604119,1.4973544973544972 -ql -t -g2.2 -f1.0 -A4.0'
END_ARGYLL_DISPCAL_ARGS


NUMBER_OF_FIELDS 4
BEGIN_DATA_FORMAT
RGB_I RGB_R RGB_G RGB_B
END_DATA_FORMAT

NUMBER_OF_SETS 256
BEGIN_DATA
0.00000000 0.00149795 0.00000000 0.00000000
0.00392157 0.00433037 0.00000000 0.00000000
0.00784314 0.00720330 0.00226910 0.00000000
0.01176470 0.01011760 0.00527383 0.00141261
0.01568630 0.01307420 0.00832772 0.00406460
0.01960780 0.01607410 0.01143200 0.00678947
0.02352940 0.01911810 0.01458790 0.00959025
0.02745100 0.02220730 0.01779670 0.01247020
0.03137250 0.02534260 0.02105990 0.01543260
0.03529410 0.02852520 0.02437870 0.01848120
0.03921570 0.03175600 0.02775460 0.02161980
0.04313730 0.03503630 0.03118900 0.02485230
0.04705880 0.03836700 0.03468140 0.02818310
0.05098040 0.04174960 0.03823100 0.03161510
0.05490200 0.04518600 0.04183700 0.03514690
0.05882350 0.04867900 0.04550040 0.03877780
0.06274510 0.05223120 0.04922160 0.04250640
0.06666670 0.05584490 0.05300120 0.04633330
0.07058820 0.05952210 0.05683700 0.05025750
0.07450980 0.06326330 0.06072700 0.05427290
0.07843140 0.06706770 0.06467130 0.05837640
0.08235290 0.07093550 0.06867170 0.06256400
0.08627450 0.07486800 0.07272830 0.06683480
0.09019610 0.07886250 0.07683800 0.07119330
0.09411760 0.08291110 0.08099530 0.07563780
0.09803920 0.08700730 0.08519010 0.08016010
0.10196100 0.09114020 0.08941620 0.08474820
0.10588200 0.09530470 0.09366200 0.08939840
0.10980400 0.09949150 0.09792400 0.09409490
0.11372500 0.10369800 0.10219700 0.09883290
0.11764700 0.10791500 0.10647600 0.10360000
0.12156900 0.11214000 0.11076200 0.10839600
0.12549000 0.11637000 0.11504800 0.11320700
0.12941200 0.12059700 0.11933400 0.11802600
0.13333300 0.12482200 0.12361900 0.12285400
0.13725500 0.12904600 0.12789200 0.12766500
0.14117600 0.13325900 0.13214100 0.13244300
0.14509800 0.13745800 0.13636900 0.13718800
0.14902000 0.14164400 0.14057800 0.14190600
0.15294100 0.14581800 0.14476900 0.14657900
0.15686300 0.14997600 0.14893300 0.15119700
0.16078400 0.15410700 0.15307200 0.15577900
0.16470600 0.15821700 0.15719700 0.16032100
0.16862700 0.16231500 0.16131000 0.16483000
0.17254900 0.16640300 0.16541200 0.16930900
0.17647100 0.17048300 0.16950600 0.17373000
0.18039200 0.17455300 0.17358000 0.17808900
0.18431400 0.17860300 0.17763100 0.18240600
0.18823500 0.18263200 0.18166400 0.18668000
0.19215700 0.18664400 0.18569000 0.19090600
0.19607800 0.19064500 0.18970800 0.19508300
0.20000000 0.19463300 0.19371900 0.19922500
0.20392200 0.19860800 0.19772000 0.20333400
0.20784300 0.20257100 0.20171700 0.20740300
0.21176500 0.20653000 0.20570300 0.21143700
0.21568600 0.21048100 0.20968000 0.21543900
0.21960800 0.21442300 0.21364700 0.21941400
0.22352900 0.21835500 0.21760300 0.22338100
0.22745100 0.22227500 0.22155000 0.22733700
0.23137300 0.22618900 0.22549800 0.23127000
0.23529400 0.23010300 0.22944700 0.23518000
0.23921600 0.23401600 0.23338800 0.23906700
0.24313700 0.23791900 0.23732200 0.24293400
0.24705900 0.24181200 0.24124700 0.24678900
0.25098000 0.24569600 0.24516400 0.25064000
0.25490200 0.24957000 0.24907500 0.25448200
0.25882400 0.25344000 0.25298300 0.25831000
0.26274500 0.25730600 0.25688300 0.26212200
0.26666700 0.26116500 0.26077600 0.26591700
0.27058800 0.26501600 0.26466100 0.26969500
0.27451000 0.26885900 0.26853900 0.27344700
0.27843100 0.27269400 0.27240700 0.27716500
0.28235300 0.27651900 0.27625500 0.28084700
0.28627500 0.28032600 0.28008000 0.28451800
0.29019600 0.28411400 0.28388100 0.28818900
0.29411800 0.28788500 0.28767200 0.29185800
0.29803900 0.29165500 0.29145900 0.29552300
0.30196100 0.29542600 0.29523800 0.29918300
0.30588200 0.29919800 0.29901000 0.30282600
0.30980400 0.30296800 0.30276900 0.30645600
0.31372500 0.30672900 0.30651500 0.31008100
0.31764700 0.31048000 0.31025500 0.31369900
0.32156900 0.31423200 0.31399100 0.31731200
0.32549000 0.31798400 0.31772400 0.32091800
0.32941200 0.32173600 0.32145300 0.32451600
0.33333300 0.32548800 0.32517800 0.32811200
0.33725500 0.32924000 0.32889900 0.33173100
0.34117600 0.33299200 0.33262500 0.33537400
0.34509800 0.33675600 0.33636900 0.33904100
0.34902000 0.34053600 0.34013000 0.34273200
0.35294100 0.34433100 0.34391000 0.34644800
0.35686300 0.34814100 0.34770800 0.35018900
0.36078400 0.35196500 0.35152500 0.35395900
0.36470600 0.35580400 0.35536200 0.35775800
0.36862700 0.35965800 0.35921700 0.36159000
0.37254900 0.36352600 0.36309200 0.36547300
0.37647100 0.36740900 0.36699800 0.36940400
0.38039200 0.37131600 0.37093500 0.37337900
0.38431400 0.37524500 0.37490000 0.37737800
0.38823500 0.37919400 0.37887700 0.38139600
0.39215700 0.38315300 0.38286400 0.38542400
0.39607800 0.38712000 0.38685600 0.38945100
0.40000000 0.39108600 0.39084500 0.39347000
0.40392200 0.39504800 0.39482900 0.39748500
0.40784300 0.39900700 0.39881100 0.40151900
0.41176500 0.40296900 0.40280300 0.40557800
0.41568600 0.40694600 0.40680900 0.40965700
0.41960800 0.41093900 0.41082700 0.41375100
0.42352900 0.41494700 0.41485600 0.41785100
0.42745100 0.41896900 0.41888900 0.42195300
0.43137300 0.42299300 0.42291700 0.42606000
0.43529400 0.42701700 0.42694000 0.43016900
0.43921600 0.43103900 0.43095700 0.43426100
0.44313700 0.43505300 0.43495900 0.43833300
0.44705900 0.43905300 0.43894500 0.44238200
0.45098000 0.44303400 0.44291400 0.44642900
0.45490200 0.44699900 0.44687300 0.45047700
0.45882400 0.45095600 0.45082700 0.45451900
0.46274500 0.45490700 0.45477400 0.45854300
0.46666700 0.45885000 0.45870200 0.46255600
0.47058800 0.46277600 0.46261300 0.46656200
0.47451000 0.46669500 0.46651700 0.47055900
0.47843100 0.47061300 0.47041300 0.47454500
0.48235300 0.47452900 0.47430200 0.47851500
0.48627500 0.47844700 0.47818600 0.48246600
0.49019600 0.48236700 0.48206500 0.48639900
0.49411800 0.48629000 0.48594100 0.49031500
0.49803900 0.49021600 0.48981400 0.49421400
0.50196100 0.49414500 0.49368500 0.49809900
0.50588200 0.49807700 0.49755300 0.50199200
0.50980400 0.50201500 0.50142600 0.50587700
0.51372500 0.50596100 0.50530300 0.50975400
0.51764700 0.50991000 0.50918300 0.51362200
0.52156900 0.51386100 0.51306600 0.51748200
0.52549000 0.51781400 0.51695100 0.52133300
0.52941200 0.52176900 0.52083800 0.52517900
0.53333300 0.52572600 0.52472300 0.52902500
0.53725500 0.52968300 0.52860800 0.53287100
0.54117600 0.53363900 0.53249100 0.53671700
0.54509800 0.53759300 0.53637300 0.54055000
0.54902000 0.54154300 0.54025100 0.54436800
0.55294100 0.54547800 0.54411900 0.54818900
0.55686300 0.54940400 0.54798600 0.55201200
0.56078400 0.55332700 0.55186000 0.55583600
0.56470600 0.55724700 0.55574100 0.55965200
0.56862700 0.56115800 0.55962600 0.56345700
0.57254900 0.56505500 0.56351600 0.56724600
0.57647100 0.56893800 0.56740800 0.57103400
0.58039200 0.57280700 0.57130800 0.57484400
0.58431400 0.57667900 0.57522900 0.57867200
0.58823500 0.58055800 0.57917300 0.58251300
0.59215700 0.58444500 0.58313700 0.58635200
0.59607800 0.58833100 0.58711000 0.59018900
0.60000000 0.59221200 0.59108600 0.59402300
0.60392200 0.59609000 0.59506800 0.59785500
0.60784300 0.59996500 0.59905400 0.60168900
0.61176500 0.60383800 0.60304400 0.60552600
0.61568600 0.60771100 0.60703600 0.60936200
0.61960800 0.61158400 0.61102800 0.61319300
0.62352900 0.61545600 0.61501700 0.61702800
0.62745100 0.61933000 0.61901300 0.62087600
0.63137300 0.62321500 0.62301900 0.62473600
0.63529400 0.62711200 0.62703100 0.62858800
0.63921600 0.63100900 0.63103500 0.63242900
0.64313700 0.63490600 0.63503100 0.63626100
0.64705900 0.63880000 0.63901100 0.64007200
0.65098000 0.64268200 0.64296700 0.64386300
0.65490200 0.64655000 0.64689900 0.64763200
0.65882400 0.65040000 0.65080100 0.65137800
0.66274500 0.65423000 0.65467600 0.65509400
0.66666700 0.65804200 0.65851900 0.65877900
0.67058800 0.66183600 0.66233000 0.66243300
0.67451000 0.66561300 0.66611100 0.66606900
0.67843100 0.66938300 0.66989200 0.66974700
0.68235300 0.67317700 0.67369200 0.67347600
0.68627500 0.67699800 0.67751200 0.67725700
0.69019600 0.68084500 0.68135000 0.68108500
0.69411800 0.68471900 0.68520400 0.68495500
0.69803900 0.68862100 0.68907400 0.68885700
0.70196100 0.69255000 0.69295800 0.69278600
0.70588200 0.69650100 0.69685000 0.69673200
0.70980400 0.70046300 0.70074900 0.70069400
0.71372500 0.70443200 0.70464800 0.70466100
0.71764700 0.70840100 0.70854800 0.70863000
0.72156900 0.71237300 0.71245000 0.71260200
0.72549000 0.71635000 0.71635300 0.71657400
0.72941200 0.72032200 0.72025000 0.72052700
0.73333300 0.72428700 0.72414000 0.72445900
0.73725500 0.72824200 0.72802100 0.72837300
0.74117600 0.73219600 0.73190400 0.73228400
0.74509800 0.73615200 0.73579100 0.73619200
0.74902000 0.74011000 0.73968200 0.74009900
0.75294100 0.74407100 0.74357700 0.74400800
0.75686300 0.74803600 0.74747800 0.74791900
0.76078400 0.75200300 0.75138500 0.75183800
0.76470600 0.75597500 0.75529900 0.75576700
0.76862700 0.75995100 0.75922000 0.75970800
0.77254900 0.76393100 0.76314900 0.76366000
0.77647100 0.76791400 0.76708500 0.76761900
0.78039200 0.77190100 0.77102800 0.77159200
0.78431400 0.77590100 0.77498800 0.77558800
0.78823500 0.77991500 0.77896400 0.77960000
0.79215700 0.78393500 0.78295200 0.78362100
0.79607800 0.78795800 0.78695100 0.78765100
0.80000000 0.79197800 0.79095800 0.79169000
0.80392200 0.79599600 0.79496900 0.79572800
0.80784300 0.80001400 0.79898500 0.79976700
0.81176500 0.80404000 0.80301400 0.80383400
0.81568600 0.80808400 0.80706600 0.80793800
0.81960800 0.81214600 0.81113900 0.81207700
0.82352900 0.81622500 0.81523200 0.81624600
0.82745100 0.82031800 0.81934200 0.82044000
0.83137300 0.82441600 0.82345800 0.82464300
0.83529400 0.82851800 0.82757800 0.82885300
0.83921600 0.83262600 0.83170500 0.83307100
0.84313700 0.83674000 0.83583800 0.83728400
0.84705900 0.84085200 0.83997100 0.84148200
0.85098000 0.84496300 0.84410400 0.84566900
0.85490200 0.84906800 0.84823600 0.84983900
0.85882400 0.85315800 0.85235800 0.85398200
0.86274500 0.85723200 0.85647100 0.85810300
0.86666700 0.86130400 0.86058600 0.86223600
0.87058800 0.86538500 0.86471300 0.86638400
0.87451000 0.86947500 0.86885100 0.87054200
0.87843100 0.87357400 0.87299900 0.87471200
0.88235300 0.87768000 0.87715400 0.87887800
0.88627500 0.88178000 0.88129800 0.88302600
0.89019600 0.88587400 0.88543100 0.88715600
0.89411800 0.88995800 0.88954900 0.89127100
0.89803900 0.89404300 0.89366200 0.89539000
0.90196100 0.89813200 0.89777300 0.89950400
0.90588200 0.90222400 0.90188000 0.90360300
0.90980400 0.90630900 0.90597900 0.90768000
0.91372500 0.91038700 0.91006700 0.91174100
0.91764700 0.91446500 0.91416000 0.91580500
0.92156900 0.91854700 0.91825800 0.91986200
0.92549000 0.92262200 0.92235000 0.92390100
0.92941200 0.92669200 0.92643700 0.92793500
0.93333300 0.93076700 0.93052800 0.93196700
0.93725500 0.93484200 0.93461700 0.93599800
0.94117600 0.93891800 0.93870700 0.94002900
0.94509800 0.94299300 0.94279700 0.94405700
0.94902000 0.94706800 0.94688700 0.94808000
0.95294100 0.95114300 0.95097800 0.95210200
0.95686300 0.95521800 0.95506800 0.95612200
0.96078400 0.95929300 0.95915800 0.96013900
0.96470600 0.96336800 0.96324900 0.96415300
0.96862700 0.96744300 0.96733800 0.96816200
0.97254900 0.97151700 0.97142600 0.97216500
0.97647100 0.97558900 0.97551200 0.97616100
0.98039200 0.97966000 0.97959700 0.98015000
0.98431400 0.98373000 0.98368100 0.98413300
0.98823500 0.98780000 0.98776300 0.98811000
0.99215700 0.99186800 0.99184300 0.99208000
0.99607800 0.99593400 0.99592200 0.99604300
1.00000000 1.00000000 1.00000000 1.00000000
END_DATA
CAL    

DESCRIPTOR "Argyll Calibration options and model"
ORIGINATOR "Argyll dispcal"
CREATED "Tue Jun  7 19:33:31 202"

NUMBER_OF_FIELDS 3
BEGIN_DATA_FORMAT
R_P G_P B_P
END_DATA_FORMAT

NUMBER_OF_SETS 32
BEGIN_DATA
0.000910167 0.001743170 0.003701350
0.999090000 0.998257000 0.996299000
1.467283000 1.518142000 1.417016000
0.595919000 0.582079000 0.687831000
0.150539000 0.089686400 0.079678300
0.121241000 0.102728000 0.103334000
0.075386600 0.099109600 0.088321600
0.044069200 0.100963000 0.111656000
0.056631000 0.058634900 0.061432400
0.053859900 0.044040500 0.051960000
0.050578300 0.051567900 0.050952100
0.045012100 0.051208700 0.048080500
0.043665300 0.046753600 0.046298800
0.042018000 0.046470500 0.049781500
0.040114700 0.036935400 0.032013500
0.037810800 0.030935700 0.031709200
0.036195800 0.039729600 0.038304700
0.037099000 0.038762500 0.041565800
0.029788200 0.035766600 0.027146700
0.029668000 0.033901000 0.028834400
0.028498600 0.030081300 0.020531900
0.027110400 0.028282400 0.023843400
0.023122000 0.028600600 0.021171200
0.022844300 0.029217000 0.020227300
0.021147400 0.027482500 0.021427100
0.022142000 0.025231200 0.018582800
0.022196200 0.023241400 0.015907600
0.020771100 0.024086200 0.017565900
0.021818800 0.026789200 0.019543200
0.018574400 0.024238600 0.015789200
0.015627700 0.026912700 0.014278900
0.012838100 0.022657100 0.014218000
END_DATA
