tests/data/sample/issue268/large_set.ti1
CTI1

ORIGINATOR "Argyll targen"
KEYWORD "OFPS_PATCHES"
OFPS_PATCHES "700"
CREATED "Thu May 21 22:20:00 2015"
KEYWORD "COMP_GREY_STEPS"
COMP_GREY_STEPS "41"
KEYWORD "BLACK_COLOR_PATCHES"
BLACK_COLOR_PATCHES "1"
KEYWORD "APPROX_WHITE_POINT"
APPROX_WHITE_POINT "95.045471 100.000000 108.905029"
DESCRIPTOR "Argyll Calibration Target chart information 1"
KEYWORD "MULTI_DIM_STEPS"
MULTI_DIM_STEPS "2"
KEYWORD "ACCURATE_EXPECTED_VALUES"
ACCURATE_EXPECTED_VALUES "true"
KEYWORD "WHITE_COLOR_PATCHES"
WHITE_COLOR_PATCHES "1"
KEYWORD "SINGLE_DIM_STEPS"
SINGLE_DIM_STEPS "24"
KEYWORD "COLOR_REP"
COLOR_REP "RGB"

NUMBER_OF_FIELDS 7
BEGIN_DATA_FORMAT
SAMPLE_ID RGB_R RGB_G RGB_B XYZ_X XYZ_Y XYZ_Z
END_DATA_FORMAT

NUMBER_OF_SETS 1005
BEGIN_DATA
1 100.00 100.00 100.00 95.046 100.00 108.91
2 0.0000 0.0000 0.0000 1.0000 1.0000 1.0000
3 2.5000 2.5000 2.5000 1.1821 1.1916 1.2087
4 5.0000 5.0000 5.0000 1.0560 1.1110 1.2099
5 7.5000 7.5000 7.5000 1.5839 1.6665 1.8149
6 10.000 10.000 10.000 2.1317 2.2428 2.4425
7 12.500 12.500 12.500 2.7726 2.9171 3.1769
8 15.000 15.000 15.000 3.5075 3.6903 4.0189
9 17.500 17.500 17.500 4.3387 4.5649 4.9714
10 20.000 20.000 20.000 5.2684 5.5430 6.0366
11 22.500 22.500 22.500 6.2973 6.6256 7.2156
12 25.000 25.000 25.000 7.4284 7.8157 8.5117
13 27.500 27.500 27.500 8.6627 9.1143 9.9259
14 30.000 30.000 30.000 10.002 10.523 11.460
15 32.500 32.500 32.500 11.449 12.046 13.118
16 35.000 35.000 35.000 13.002 13.680 14.898
17 37.500 37.500 37.500 14.666 15.431 16.805
18 40.000 40.000 40.000 16.442 17.299 18.839
19 42.500 42.500 42.500 18.328 19.283 21.000
20 45.000 45.000 45.000 20.328 21.388 23.293
21 47.500 47.500 47.500 22.443 23.613 25.715
22 50.000 50.000 50.000 24.672 25.959 28.270
23 52.500 52.500 52.500 27.020 28.429 30.960
24 55.000 55.000 55.000 29.485 31.022 33.784
25 57.500 57.500 57.500 32.068 33.739 36.744
26 60.000 60.000 60.000 34.771 36.584 39.842
27 62.500 62.500 62.500 37.595 39.555 43.077
28 65.000 65.000 65.000 40.542 42.655 46.453
29 67.500 67.500 67.500 43.610 45.883 49.969
30 70.000 70.000 70.000 46.802 49.242 53.627
31 72.500 72.500 72.500 50.119 52.731 57.427
32 75.000 75.000 75.000 53.560 56.352 61.370
33 77.500 77.500 77.500 57.129 60.107 65.459
34 80.000 80.000 80.000 60.823 63.994 69.693
35 82.500 82.500 82.500 64.646 68.016 74.073
36 85.000 85.000 85.000 68.597 72.173 78.600
37 87.500 87.500 87.500 72.677 76.466 83.275
38 90.000 90.000 90.000 76.888 80.897 88.100
39 92.500 92.500 92.500 81.230 85.464 93.074
40 95.000 95.000 95.000 85.702 90.170 98.199
41 97.500 97.500 97.500 89.843 94.463 102.81
42 5.0000 0.0000 0.0000 0.4582 0.2362 0.0215
43 10.000 0.0000 0.0000 0.9249 0.4769 0.0433
44 15.000 0.0000 0.0000 1.5218 0.7847 0.0713
45 20.000 0.0000 0.0000 2.2858 1.1787 0.1071
46 25.000 0.0000 0.0000 3.2231 1.6620 0.1510
47 30.000 0.0000 0.0000 4.3396 2.2377 0.2034
48 35.000 0.0000 0.0000 5.6414 2.9090 0.2644
49 40.000 0.0000 0.0000 7.1338 3.6785 0.3343
50 45.000 0.0000 0.0000 8.8201 4.5480 0.4133
51 50.000 0.0000 0.0000 10.705 5.5199 0.5017
52 55.000 0.0000 0.0000 12.793 6.5966 0.5995
53 60.000 0.0000 0.0000 15.087 7.7793 0.7070
54 65.000 0.0000 0.0000 17.590 9.0703 0.8243
55 70.000 0.0000 0.0000 20.307 10.471 0.9516
56 75.000 0.0000 0.0000 23.239 11.983 1.0890
57 80.000 0.0000 0.0000 26.390 13.608 1.2367
58 85.000 0.0000 0.0000 29.763 15.347 1.3947
59 90.000 0.0000 0.0000 33.361 17.202 1.5633
60 95.000 0.0000 0.0000 37.185 19.174 1.7425
61 0.0000 5.0000 0.0000 0.3973 0.7946 0.1324
62 0.0000 10.000 0.0000 0.8020 1.6040 0.2673
63 0.0000 15.000 0.0000 1.3196 2.6392 0.4398
64 0.0000 20.000 0.0000 1.9821 3.9642 0.6606
65 0.0000 25.000 0.0000 2.7948 5.5895 0.9315
66 0.0000 30.000 0.0000 3.7629 7.5258 1.2542
67 0.0000 35.000 0.0000 4.8918 9.7835 1.6305
68 0.0000 40.000 0.0000 6.1859 12.372 2.0618
69 0.0000 45.000 0.0000 7.6481 15.296 2.5492
70 0.0000 50.000 0.0000 9.2825 18.565 3.0939
71 0.0000 55.000 0.0000 11.093 22.186 3.6974
72 0.0000 60.000 0.0000 13.082 26.163 4.3603
73 0.0000 65.000 0.0000 15.253 30.506 5.0839
74 0.0000 70.000 0.0000 17.608 35.216 5.8690
75 0.0000 75.000 0.0000 20.151 40.301 6.7164
76 0.0000 80.000 0.0000 22.883 45.766 7.6272
77 0.0000 85.000 0.0000 25.808 51.616 8.6020
78 0.0000 90.000 0.0000 28.928 57.855 9.6417
79 0.0000 95.000 0.0000 32.243 64.486 10.747
80 0.0000 0.0000 5.0000 0.2005 0.0802 1.0560
81 0.0000 0.0000 10.000 0.4048 0.1619 2.1318
82 0.0000 0.0000 15.000 0.6660 0.2664 3.5077
83 0.0000 0.0000 20.000 1.0004 0.4001 5.2688
84 0.0000 0.0000 25.000 1.4106 0.5642 7.4290
85 0.0000 0.0000 30.000 1.8993 0.7597 10.002
86 0.0000 0.0000 35.000 2.4690 0.9876 13.003
87 0.0000 0.0000 40.000 3.1222 1.2488 16.443
88 0.0000 0.0000 45.000 3.8602 1.5440 20.330
89 0.0000 0.0000 50.000 4.6851 1.8739 24.674
90 0.0000 0.0000 55.000 5.5990 2.2395 29.487
91 0.0000 0.0000 60.000 6.6028 2.6410 34.774
92 0.0000 0.0000 65.000 7.6986 3.0792 40.545
93 0.0000 0.0000 70.000 8.8874 3.5547 46.806
94 0.0000 0.0000 75.000 10.171 4.0680 53.564
95 0.0000 0.0000 80.000 11.550 4.6197 60.828
96 0.0000 0.0000 85.000 13.026 5.2101 68.602
97 0.0000 0.0000 90.000 14.601 5.8399 76.894
98 0.0000 0.0000 95.000 16.274 6.5093 85.709
99 5.0000 5.0000 0.0000 0.8554 1.0308 0.1539
100 10.000 10.000 0.0000 1.7269 2.0809 0.3106
101 15.000 15.000 0.0000 2.8414 3.4239 0.5111
102 20.000 20.000 0.0000 4.2679 5.1429 0.7678
103 25.000 25.000 0.0000 6.0179 7.2515 1.0826
104 30.000 30.000 0.0000 8.1025 9.7634 1.4576
105 35.000 35.000 0.0000 10.533 12.693 1.8948
106 40.000 40.000 0.0000 13.320 16.050 2.3961
107 45.000 45.000 0.0000 16.468 19.844 2.9625
108 50.000 50.000 0.0000 19.987 24.085 3.5956
109 55.000 55.000 0.0000 23.886 28.782 4.2969
110 60.000 60.000 0.0000 28.169 33.943 5.0673
111 65.000 65.000 0.0000 32.843 39.576 5.9082
112 70.000 70.000 0.0000 37.915 45.687 6.8206
113 75.000 75.000 0.0000 43.390 52.284 7.8054
114 80.000 80.000 0.0000 49.273 59.374 8.8639
115 85.000 85.000 0.0000 55.571 66.963 9.9967
116 90.000 90.000 0.0000 62.288 75.057 11.205
117 95.000 95.000 0.0000 69.428 83.660 12.489
118 0.0000 5.0000 5.0000 0.5978 0.8748 1.1885
119 0.0000 10.000 10.000 1.2068 1.7659 2.3991
120 0.0000 15.000 15.000 1.9857 2.9056 3.9476
121 0.0000 20.000 20.000 2.9825 4.3643 5.9294
122 0.0000 25.000 25.000 4.2054 6.1537 8.3605
123 0.0000 30.000 30.000 5.6622 8.2854 11.257
124 0.0000 35.000 35.000 7.3608 10.771 14.634
125 0.0000 40.000 40.000 9.3080 13.620 18.505
126 0.0000 45.000 45.000 11.508 16.840 22.879
127 0.0000 50.000 50.000 13.968 20.439 27.768
128 0.0000 55.000 55.000 16.692 24.425 33.184
129 0.0000 60.000 60.000 19.685 28.805 39.134
130 0.0000 65.000 65.000 22.951 33.585 45.629
131 0.0000 70.000 70.000 26.496 38.771 52.675
132 0.0000 75.000 75.000 30.322 44.369 60.281
133 0.0000 80.000 80.000 34.433 50.386 68.455
134 0.0000 85.000 85.000 38.834 56.826 77.204
135 0.0000 90.000 90.000 43.528 63.694 86.536
136 0.0000 95.000 95.000 48.518 70.996 96.456
137 5.0000 0.0000 5.0000 0.6587 0.3165 1.0775
138 10.000 0.0000 10.000 1.3297 0.6388 2.1751
139 15.000 0.0000 15.000 2.1879 1.0511 3.5791
140 20.000 0.0000 20.000 3.2863 1.5788 5.3759
141 25.000 0.0000 25.000 4.6337 2.2262 7.5800
142 30.000 0.0000 30.000 6.2388 2.9973 10.206
143 35.000 0.0000 35.000 8.1105 3.8965 13.268
144 40.000 0.0000 40.000 10.256 4.9273 16.777
145 45.000 0.0000 45.000 12.680 6.0920 20.743
146 50.000 0.0000 50.000 15.390 7.3939 25.176
147 55.000 0.0000 55.000 18.392 8.8360 30.087
148 60.000 0.0000 60.000 21.689 10.420 35.481
149 65.000 0.0000 65.000 25.289 12.149 41.369
150 70.000 0.0000 70.000 29.194 14.026 47.757
151 75.000 0.0000 75.000 33.410 16.051 54.653
152 80.000 0.0000 80.000 37.940 18.227 62.065
153 85.000 0.0000 85.000 42.789 20.557 69.997
154 90.000 0.0000 90.000 47.961 23.042 78.457
155 95.000 0.0000 95.000 53.459 25.683 87.451
156 44.857 44.857 44.857 20.211 21.264 23.158
157 49.219 43.604 43.604 21.265 21.264 22.093
158 53.218 42.313 42.313 22.319 21.264 21.029
159 56.927 40.985 40.985 23.373 21.264 19.966
160 60.400 39.612 39.612 24.426 21.264 18.902
161 63.673 38.191 38.191 25.480 21.264 17.839
162 66.777 36.718 36.718 26.532 21.264 16.776
163 69.733 35.187 35.187 27.585 21.264 15.714
164 72.560 33.587 33.587 28.637 21.264 14.652
165 75.272 31.916 31.916 29.689 21.264 13.590
166 77.882 30.157 30.157 30.740 21.264 12.529
167 80.400 28.299 28.299 31.792 21.264 11.468
168 82.834 26.325 26.325 32.843 21.264 10.407
169 85.192 24.210 24.210 33.893 21.264 9.3465
170 87.479 21.922 21.922 34.943 21.264 8.2864
171 89.702 19.413 19.413 35.993 21.264 7.2266
172 91.865 16.610 16.610 37.043 21.264 6.1671
173 93.974 13.391 13.391 38.092 21.264 5.1080
174 96.029 9.5046 9.5046 39.141 21.264 4.0491
175 98.038 4.7686 4.7686 40.190 21.264 2.9906
176 100.00 0.0000 0.0000 41.238 21.264 1.9325
177 84.611 84.611 84.611 67.974 71.517 77.885
178 80.792 86.081 80.792 65.152 71.517 72.108
179 77.080 87.414 77.080 62.546 71.517 66.771
180 73.459 88.630 73.459 60.130 71.517 61.824
181 69.912 89.744 69.912 57.885 71.517 57.228
182 66.425 90.768 66.425 55.794 71.517 52.945
183 62.982 91.714 62.982 53.841 71.517 48.945
184 59.568 92.589 59.568 52.012 71.517 45.202
185 56.168 93.402 56.168 50.297 71.517 41.690
186 52.765 94.159 52.765 48.685 71.517 38.389
187 49.339 94.865 49.339 47.167 71.517 35.280
188 45.870 95.526 45.870 45.735 71.517 32.348
189 42.329 96.147 42.329 44.382 71.517 29.578
190 38.686 96.730 38.686 43.102 71.517 26.956
191 34.894 97.278 34.894 41.889 71.517 24.471
192 30.889 97.796 30.889 40.737 71.517 22.113
193 26.578 98.286 26.578 39.642 71.517 19.871
194 21.795 98.748 21.795 38.601 71.517 17.739
195 16.225 99.188 16.225 37.609 71.517 15.707
196 9.0236 99.604 9.0236 36.662 71.517 13.769
197 0.0000 100.00 0.0000 35.759 71.517 11.919
198 23.776 23.776 23.776 6.8614 7.2191 7.8619
199 23.631 23.631 25.568 6.9677 7.2191 8.6908
200 23.474 23.474 27.403 7.0836 7.2191 9.5936
201 23.299 23.299 29.290 7.2102 7.2191 10.580
202 23.108 23.108 31.241 7.3492 7.2191 11.664
203 22.893 22.893 33.269 7.5025 7.2191 12.858
204 22.655 22.655 35.388 7.6724 7.2191 14.183
205 22.385 22.385 37.615 7.8617 7.2191 15.658
206 22.082 22.082 39.971 8.0741 7.2191 17.313
207 21.732 21.732 42.478 8.3139 7.2191 19.182
208 21.329 21.329 45.163 8.5869 7.2191 21.310
209 20.860 20.860 48.063 8.9004 7.2191 23.754
210 20.303 20.303 51.219 9.2643 7.2191 26.590
211 19.633 19.633 54.689 9.6917 7.2191 29.921
212 18.811 18.811 58.546 10.201 7.2191 33.889
213 17.770 17.770 62.889 10.818 7.2191 38.695
214 16.416 16.416 67.856 11.580 7.2191 44.638
215 14.568 14.568 73.644 12.547 7.2191 52.174
216 11.851 11.851 80.553 13.813 7.2191 62.043
217 7.2766 7.2766 89.063 15.543 7.2191 75.526
218 0.0000 0.0000 100.00 18.049 7.2191 95.054
219 96.356 96.356 96.356 88.184 92.781 101.04
220 96.634 96.634 92.704 87.347 92.781 94.523
221 96.897 96.897 89.083 86.553 92.781 88.333
222 97.146 97.146 85.486 85.799 92.781 82.451
223 97.382 97.382 81.902 85.080 92.781 76.854
224 97.606 97.606 78.320 84.396 92.781 71.521
225 97.821 97.821 74.729 83.743 92.781 66.434
226 98.024 98.024 71.117 83.120 92.781 61.577
227 98.218 98.218 67.471 82.525 92.781 56.934
228 98.404 98.404 63.772 81.955 92.781 52.491
229 98.581 98.581 60.005 81.409 92.781 48.236
230 98.750 98.750 56.143 80.885 92.781 44.157
231 98.912 98.912 52.159 80.383 92.781 40.244
232 99.068 99.068 48.015 79.901 92.781 36.486
233 99.218 99.218 43.657 79.438 92.781 32.874
234 99.361 99.361 39.013 78.992 92.781 29.401
235 99.499 99.499 33.964 78.563 92.781 26.058
236 99.631 99.631 28.317 78.150 92.781 22.838
237 99.759 99.759 21.682 77.752 92.781 19.734
238 99.881 99.881 13.036 77.367 92.781 16.740
239 100.00 100.00 0.0000 76.997 92.781 13.851
240 88.791 88.791 88.791 74.835 78.736 85.747
241 86.540 89.387 89.387 73.784 78.736 86.808
242 84.224 89.980 89.980 72.734 78.736 87.868
243 81.835 90.569 90.569 71.683 78.736 88.929
244 79.368 91.153 91.153 70.632 78.736 89.990
245 76.814 91.734 91.734 69.581 78.736 91.050
246 74.166 92.310 92.310 68.530 78.736 92.111
247 71.410 92.882 92.882 67.479 78.736 93.172
248 68.534 93.451 93.451 66.428 78.736 94.233
249 65.524 94.016 94.016 65.377 78.736 95.294
250 62.359 94.577 94.577 64.325 78.736 96.356
251 59.014 95.134 95.134 63.274 78.736 97.417
252 55.458 95.689 95.689 62.223 78.736 98.478
253 51.647 96.239 96.239 61.171 78.736 99.540
254 47.524 96.786 96.786 60.119 78.736 100.60
255 43.001 97.330 97.330 59.068 78.736 101.66
256 37.948 97.870 97.870 58.016 78.736 102.72
257 32.139 98.408 98.408 56.964 78.736 103.79
258 25.128 98.941 98.941 55.912 78.736 104.85
259 15.742 99.472 99.472 54.860 78.736 105.91
260 0.0000 100.00 100.00 53.807 78.736 106.97
261 52.554 52.554 52.554 27.072 28.483 31.020
262 54.225 51.873 54.225 27.847 28.483 32.607
263 55.934 51.144 55.934 28.666 28.483 34.284
264 57.685 50.361 57.685 29.532 28.483 36.058
265 59.481 49.517 59.481 30.450 28.483 37.937
266 61.327 48.605 61.327 31.424 28.483 39.931
267 63.228 47.616 63.228 32.460 28.483 42.052
268 65.188 46.541 65.188 33.563 28.483 44.311
269 67.213 45.362 67.213 34.740 28.483 46.722
270 69.311 44.068 69.311 36.000 28.483 49.302
271 71.488 42.636 71.488 37.351 28.483 52.068
272 73.751 41.042 73.751 38.803 28.483 55.042
273 76.110 39.251 76.110 40.369 28.483 58.248
274 78.574 37.220 78.574 42.062 28.483 61.715
275 81.156 34.890 81.156 43.898 28.483 65.474
276 83.868 32.173 83.868 45.896 28.483 69.566
277 86.724 28.935 86.724 48.079 28.483 74.036
278 89.743 24.953 89.743 50.474 28.483 78.940
279 92.945 19.798 92.945 53.112 28.483 84.343
280 96.355 12.357 96.355 56.034 28.483 90.325
281 100.00 0.0000 100.00 59.287 28.483 96.986
282 40.014 25.786 20.317 11.099 9.9635 6.7068
283 75.324 53.324 45.514 37.843 34.593 25.342
284 29.729 42.874 56.966 17.263 18.608 34.043
285 29.370 36.749 19.123 10.451 13.186 6.9022
286 45.878 45.225 65.633 24.698 23.284 44.310
287 30.467 71.586 63.893 30.296 42.064 45.565
288 86.504 43.440 12.117 38.502 30.443 6.5044
289 20.525 29.989 63.105 13.408 11.655 39.664
290 75.217 26.193 32.376 28.543 18.938 13.474
291 30.976 16.581 35.901 8.6732 6.4200 14.309
292 58.214 71.178 18.499 33.326 44.081 11.428
293 89.196 59.446 9.2210 45.989 42.749 7.7700
294 7.7021 18.704 53.282 7.7766 6.0657 28.411
295 20.128 54.049 23.036 14.282 23.155 10.217
296 67.276 12.896 16.166 20.622 12.158 5.1263
297 92.643 75.270 3.0853 55.771 58.867 9.0726
298 72.946 27.032 54.748 30.727 19.906 31.320
299 0.0000 48.676 62.903 14.518 19.761 40.936
300 95.568 95.693 94.577 86.481 91.294 97.612
301 76.096 76.909 76.998 55.793 58.956 64.583
302 59.061 59.970 60.149 34.343 36.341 39.981
303 42.165 42.383 42.534 18.187 19.160 21.010
304 26.405 27.083 27.768 8.3684 8.8404 10.026
305 12.892 13.165 13.693 2.9545 3.1078 3.5418
306 25.495 0.0000 85.412 16.477 6.9752 69.422
307 25.214 11.866 100.00 22.294 10.861 95.533
308 52.164 13.094 100.00 30.737 15.403 95.965
309 86.126 60.387 100.00 61.845 49.460 100.90
310 100.00 80.689 100.00 82.562 75.033 104.74
311 100.00 0.0000 15.758 41.951 21.549 5.6828
312 100.00 22.089 100.00 61.589 33.089 97.754
313 100.00 39.132 100.00 65.236 40.381 98.969
314 26.240 100.00 41.492 42.575 74.646 29.638
315 48.083 100.00 43.983 49.420 78.133 31.888
316 0.0000 27.014 100.00 21.214 13.550 96.109
317 0.0000 38.061 100.00 23.713 18.547 96.942
318 0.0000 48.636 100.00 26.868 24.858 97.993
319 64.138 79.542 100.00 57.817 61.309 103.40
320 80.971 80.069 100.00 67.998 67.000 103.96
321 0.0000 15.248 100.00 19.397 9.9172 95.503
322 25.932 29.055 100.00 25.033 16.116 96.403
323 31.655 100.00 100.00 58.557 81.185 107.19
324 57.313 100.00 84.264 62.389 83.768 79.994
325 71.613 100.00 90.698 71.816 88.394 91.008
326 47.936 100.00 0.0000 45.661 76.623 12.383
327 66.404 100.00 0.0000 54.090 80.969 12.778
328 77.189 100.00 22.039 61.508 84.660 19.171
329 0.0000 100.00 65.643 43.605 74.655 53.240
330 31.946 100.00 73.873 50.456 77.953 64.143
331 35.347 9.6076 0.0000 6.5065 4.4940 0.5247
332 51.565 14.934 0.0000 12.648 8.4693 0.9685
333 62.083 39.947 0.0000 22.275 20.646 2.8116
334 69.241 56.235 0.0000 31.448 33.386 4.7872
335 77.692 59.883 19.299 38.890 39.289 10.510
336 78.179 75.142 45.096 49.318 55.004 28.333
337 100.00 87.920 59.275 75.296 79.057 45.112
338 0.0000 68.962 45.617 21.061 35.790 26.542
339 20.491 76.792 52.092 28.535 45.461 33.778
340 43.247 81.317 65.363 39.623 54.614 49.245
341 68.831 84.975 74.367 55.447 65.719 62.199
342 47.502 34.269 28.893 16.239 15.169 11.426
343 56.750 37.992 40.478 22.407 19.566 19.313
344 72.642 43.640 58.480 35.350 28.237 36.550
345 10.022 45.398 25.442 10.149 16.602 10.273
346 30.336 82.278 0.0000 28.613 50.663 8.2707
347 68.414 86.139 0.0000 45.923 63.017 9.7435
348 84.185 100.00 0.0000 64.957 86.573 13.287
349 84.515 100.00 40.408 68.364 87.962 30.041
350 24.103 0.0000 60.746 9.8019 4.2724 35.747
351 30.810 32.385 71.198 18.006 14.577 50.020
352 29.444 55.930 76.553 26.245 29.303 59.781
353 0.0000 61.947 66.233 21.888 31.003 46.678
354 0.0000 100.00 81.079 47.619 76.261 74.382
355 17.735 100.00 88.588 51.823 78.164 86.509
356 79.426 62.760 48.657 44.730 43.712 29.434
357 100.00 63.258 56.724 61.649 52.589 38.014
358 100.00 63.570 67.644 64.167 53.816 50.598
359 45.412 69.169 23.110 27.418 39.530 12.718
360 62.311 72.160 46.768 39.043 47.385 28.801
361 68.987 100.00 46.349 59.572 83.325 34.301
362 26.525 66.646 0.0000 19.552 33.843 5.5017
363 26.254 100.00 0.0000 39.245 73.314 12.082
364 31.750 100.00 23.763 41.835 74.499 18.999
365 0.0000 100.00 25.294 37.196 72.092 19.488
366 57.953 100.00 26.638 51.443 79.424 20.806
367 100.00 100.00 50.396 81.751 94.683 38.890
368 100.00 100.00 70.493 86.007 96.385 61.301
369 100.00 100.00 87.322 90.742 98.279 86.241
370 100.00 0.0000 64.341 48.787 24.284 41.689
371 100.00 23.051 80.167 55.296 30.822 63.833
372 100.00 23.114 0.0000 43.708 26.204 2.7558
373 100.00 42.252 0.0000 48.062 34.911 4.2069
374 0.0000 9.2207 9.5690 1.1195 1.6219 2.2756
375 0.0000 31.092 31.892 6.1010 8.8334 12.419
376 0.0000 45.029 50.725 12.469 17.239 27.895
377 29.840 57.538 60.688 23.129 29.077 39.768
378 38.215 67.844 72.747 32.729 40.363 56.288
379 78.223 0.0000 85.858 38.534 18.333 71.172
380 87.681 28.453 88.480 49.222 28.865 76.952
381 0.0000 100.00 45.044 39.626 73.064 32.286
382 26.602 100.00 58.460 45.603 75.866 45.181
383 57.614 100.00 72.326 59.197 82.507 62.462
384 0.0000 73.254 64.202 26.759 41.490 46.005
385 21.405 76.196 69.020 31.965 46.337 52.587
386 0.0000 82.086 21.835 25.222 48.617 14.040
387 37.410 84.556 26.754 33.450 54.977 17.094
388 53.923 86.320 34.636 41.363 60.550 22.219
389 0.0000 51.708 66.378 17.898 22.969 45.514
390 13.407 54.418 91.493 27.277 28.459 83.158
391 24.244 57.886 100.00 33.337 33.239 99.270
392 0.0000 42.166 82.336 19.026 18.488 66.662
393 0.0000 73.323 100.00 37.325 45.772 101.48
394 41.934 89.166 100.00 54.205 68.009 104.88
395 55.020 100.00 100.00 66.609 85.337 107.57
396 24.763 52.063 0.0000 13.182 21.652 3.4845
397 56.617 58.923 0.0000 26.150 32.243 4.8457
398 80.415 69.326 0.0000 43.941 48.308 7.0091
399 100.00 71.279 0.0000 59.479 57.745 8.0124
400 100.00 20.684 14.545 43.962 25.689 5.9948
401 100.00 20.149 28.476 44.984 25.969 11.775
402 100.00 33.022 41.304 48.971 31.439 20.821
403 100.00 57.358 41.082 56.521 46.591 23.180
404 100.00 78.434 71.247 72.444 68.958 57.712
405 100.00 82.446 89.696 80.031 75.645 86.404
406 54.480 0.0000 20.272 13.586 6.8877 5.9645
407 56.895 19.744 37.111 18.317 12.015 15.690
408 38.301 20.561 21.125 9.7563 7.9709 6.7169
409 40.761 20.635 30.157 11.370 8.7236 11.129
410 41.709 19.781 44.763 13.461 9.3929 21.145
411 53.835 32.247 52.811 21.726 16.912 29.316
412 60.161 48.147 56.326 29.676 27.474 34.437
413 0.0000 71.681 27.098 20.048 37.526 14.605
414 0.0000 84.175 43.956 29.011 52.103 27.918
415 0.0000 84.806 62.622 32.857 54.248 46.303
416 100.00 88.524 73.196 78.921 81.114 62.328
417 100.00 90.341 86.541 83.887 84.959 82.752
418 100.00 90.890 100.00 88.790 87.489 106.82
419 61.154 0.0000 10.239 16.062 8.2340 2.9219
420 64.835 0.0000 53.277 22.778 11.135 28.595
421 81.350 0.0000 68.437 35.784 17.468 46.074
422 100.00 0.0000 81.937 53.348 26.108 65.711
423 64.486 28.107 0.0000 20.701 15.688 1.9377
424 100.00 38.632 27.157 48.665 33.539 12.358
425 100.00 47.131 42.133 52.989 39.282 22.753
426 16.384 10.596 19.238 3.5175 2.9756 5.3407
427 70.340 44.354 42.099 31.370 26.837 21.464
428 71.268 54.916 53.787 37.460 35.113 32.948
429 75.374 66.862 75.323 49.832 48.420 60.488
430 40.265 60.314 57.452 26.510 32.579 36.761
431 56.901 78.291 74.461 45.596 54.900 60.759
432 60.512 80.898 87.316 52.470 60.191 80.895
433 61.513 88.863 100.00 62.071 71.778 105.19
434 88.389 88.881 100.00 78.437 80.235 105.97
435 24.975 0.0000 43.083 6.7850 3.0860 18.937
436 43.849 0.0000 50.060 13.110 6.2169 25.124
437 50.953 12.405 77.773 23.044 12.153 58.394
438 68.804 20.918 81.588 33.765 19.168 64.870
439 47.988 21.020 62.090 19.107 12.207 38.303
440 48.905 34.258 86.608 28.511 20.135 73.266
441 70.477 58.480 100.00 51.083 42.745 100.17
442 63.779 0.0000 35.040 19.433 9.7346 13.824
443 82.826 0.0000 36.987 30.988 15.664 15.642
444 100.00 0.0000 48.491 45.666 23.035 25.248
445 21.838 0.0000 7.0052 2.8906 1.4580 1.6021
446 34.547 0.0000 13.564 6.0995 3.0777 3.3325
447 44.833 8.0929 15.909 10.123 6.0888 4.4238
448 69.186 22.314 24.523 23.557 15.461 8.9156
449 70.137 16.157 0.0000 21.843 13.431 1.4418
450 81.576 19.586 14.962 30.015 18.252 5.4217
451 100.00 50.105 21.553 51.677 40.349 10.934
452 100.00 100.00 26.549 78.551 93.403 22.033
453 13.039 26.756 37.671 7.1925 8.0103 15.884
454 12.141 37.085 48.940 11.075 13.222 25.573
455 32.176 45.234 74.748 22.708 22.000 56.015
456 0.0000 7.8280 19.567 1.5905 1.6316 5.3078
457 0.0000 16.193 31.418 3.5171 3.7501 11.298
458 0.0000 18.302 49.129 6.2755 5.2949 24.465
459 0.0000 30.541 63.900 11.327 10.735 40.526
460 0.0000 46.299 74.555 18.108 20.133 55.627
461 0.0000 59.735 100.00 31.020 33.162 99.377
462 22.448 68.448 100.00 37.628 42.337 100.80
463 43.522 77.592 100.00 47.893 54.586 102.62
464 0.0000 12.788 74.901 11.217 6.2037 53.784
465 0.0000 29.004 82.018 15.691 11.968 65.090
466 81.462 46.554 100.00 53.538 37.597 99.048
467 100.00 53.764 100.00 69.916 49.741 100.53
468 31.084 0.0000 30.460 6.5543 3.1543 10.478
469 50.403 0.0000 38.920 13.840 6.7923 16.172
470 0.0000 12.916 7.1543 1.3736 2.2881 1.8730
471 0.0000 56.521 28.547 13.428 24.057 13.105
472 52.988 64.993 34.298 29.562 37.603 18.199
473 21.011 31.819 8.8353 6.9703 9.7206 3.3652
474 22.534 33.281 18.881 8.1430 10.750 6.4636
475 43.956 34.773 22.220 14.462 14.502 8.1859
476 47.236 89.806 20.383 39.471 62.987 15.472
477 50.725 100.00 59.674 53.288 79.800 46.849
478 71.591 100.00 64.868 64.643 85.524 53.300
479 77.897 100.00 82.025 72.933 89.281 77.007
480 67.895 65.139 58.022 40.647 42.977 38.627
481 87.769 70.031 71.052 58.500 55.266 55.548
482 100.00 75.174 77.991 72.465 66.142 66.529
483 79.647 0.0000 50.105 30.864 15.371 25.997
484 86.752 10.404 49.769 36.482 19.519 26.196
485 88.990 60.082 82.272 57.940 47.933 70.198
486 0.0000 58.755 52.275 17.660 27.175 30.996
487 0.0000 69.365 83.751 29.947 39.656 72.379
488 0.0000 79.016 83.261 34.832 49.661 73.283
489 0.0000 86.934 100.00 45.040 61.201 104.05
490 74.004 46.734 27.303 32.458 28.713 12.355
491 73.724 67.521 29.122 40.695 45.143 16.046
492 100.00 86.116 22.094 68.889 74.704 16.884
493 100.00 87.814 41.167 72.065 77.657 28.421
494 27.980 31.854 0.0000 8.0290 10.319 1.5687
495 29.547 39.108 51.762 15.171 16.065 28.496
496 31.097 48.711 58.481 19.742 22.581 36.282
497 46.384 20.045 8.3335 11.644 8.9175 2.8555
498 68.491 28.280 34.850 25.328 17.841 14.957
499 69.165 40.556 74.352 36.177 26.909 55.703
500 73.240 54.067 84.702 45.859 38.095 72.745
501 0.0000 8.7452 32.446 2.8619 2.2551 11.649
502 16.056 19.659 43.239 7.1916 6.1608 19.631
503 45.665 27.352 100.00 30.338 18.351 96.555
504 45.982 42.527 100.00 34.126 25.756 97.785
505 53.709 56.117 100.00 41.804 36.570 99.467
506 0.0000 26.863 10.646 3.5715 6.4479 3.3337
507 10.884 31.550 18.576 6.0120 9.0759 6.1394
508 19.435 40.441 36.267 11.125 14.796 16.039
