tests/data/sample/issue268/ok_when_unstable.ti1
CTI1

ORIGINATOR "Argyll targen"
CREATED "Fri Oct 11 21:11:25 2013"
KEYWORD "COMP_GREY_STEPS"
COMP_GREY_STEPS "11"
KEYWORD "BLACK_COLOR_PATCHES"
BLACK_COLOR_PATCHES "1"
KEYWORD "APPROX_WHITE_POINT"
APPROX_WHITE_POINT "95.045684 99.999971 108.903720"
DESCRIPTOR "Argyll Calibration Target chart information 1"
KEYWORD "MULTI_DIM_STEPS"
MULTI_DIM_STEPS "2"
KEYWORD "ACCURATE_EXPECTED_VALUES"
ACCURATE_EXPECTED_VALUES "true"
KEYWORD "WHITE_COLOR_PATCHES"
WHITE_COLOR_PATCHES "1"
KEYWORD "COLOR_REP"
COLOR_REP "RGB"

NUMBER_OF_FIELDS 7
BEGIN_DATA_FORMAT
SAMPLE_ID RGB_R RGB_G RGB_B XYZ_X XYZ_Y XYZ_Z
END_DATA_FORMAT

NUMBER_OF_SETS 8
BEGIN_DATA
0 35.000 35.000 35.000 13.002 13.680 14.898
1 5.0000 5.0000 5.0000 1.0560 1.1110 1.2099
2 63.673 38.191 38.191 25.480 21.264 17.839
3 77.882 30.157 30.157 30.740 21.264 12.529
4 89.702 19.413 19.413 35.993 21.264 7.2266
5 80.000 80.000 80.000 60.823 63.994 69.692
6 10.000 10.000 10.000 2.1317 2.2428 2.4425
7 15.000 15.000 15.000 3.5075 3.6903 4.0189
END_DATA
CTI1

