tests/data/sample/0_16_for_sorting.ti1
CTI1

DESCRIPTOR "Argyll Calibration Target chart information 1"
ORIGINATOR "Argyll targen"
CREATED "Thu Apr 20 12:22:05 2017"
APPROX_WHITE_POINT "95.045781 100.000003 108.905751"
COLOR_REP "RGB"

NUMBER_OF_FIELDS 7
BEGIN_DATA_FORMAT
SAMPLE_ID RGB_R RGB_G RGB_B XYZ_X XYZ_Y XYZ_Z
END_DATA_FORMAT

NUMBER_OF_SETS 10
BEGIN_DATA
1 100.00 100.00 100.00 100.00 100.00 100.00
2 0.0000 0.0000 0.0000 0.0000 0.0000 0.0000
3 50.000 50.000 50.000 100.00 100.00 100.00
4 50.000 100.00 100.00 100.00 100.00 100.00
5 0.0000 0.0000 0.0000 0.0000 0.0000 0.0000
6 50.000 0.0000 0.0000 0.0000 0.0000 0.0000
7 80.000 80.000 80.000 100.00 100.00 100.00
8 25.000 50.000 25.000 0.0000 0.0000 0.0000
9 50.000 50.000 25.000 0.0000 0.0000 0.0000
10 50.000 50.000 100.000 0.0000 0.0000 0.0000
END_DATA


[[100.0, 100.0, 100.0, 100.0, 100.0, 100.0], [0.0, 0.0, 0.0, 0.0, 0.0, 0.0], [50.0, 50.0, 50.0, 100.0, 100.0, 100.0], [0.0, 0.0, 0.0, 0.0, 0.0, 0.0], [80.0, 80.0, 80.0, 100.0, 100.0, 100.0], [50.0, 100.0, 100.0, 100.0, 100.0, 100.0], [50.0, 0.0, 0.0, 0.0, 0.0, 0.0], [25.0, 50.0, 25.0, 0.0, 0.0, 0.0], [50.0, 50.0, 25.0, 0.0, 0.0, 0.0], [50.0, 50.0, 100.0, 0.0, 0.0, 0.0]]
[[50.0, 100.0, 100.0, 100.0, 100.0, 100.0], [100.0, 100.0, 100.0, 100.0, 100.0, 100.0], [0.0, 0.0, 0.0, 0.0, 0.0, 0.0], [50.0, 50.0, 50.0, 100.0, 100.0, 100.0], [0.0, 0.0, 0.0, 0.0, 0.0, 0.0], [50.0, 0.0, 0.0, 0.0, 0.0, 0.0], [80.0, 80.0, 80.0, 100.0, 100.0, 100.0], [25.0, 50.0, 25.0, 0.0, 0.0, 0.0], [50.0, 50.0, 25.0, 0.0, 0.0, 0.0], [50.0, 50.0, 100.0, 0.0, 0.0, 0.0]]
[[50.0, 50.0, 100.0, 0.0, 0.0, 0.0], [100.0, 100.0, 100.0, 100.0, 100.0, 100.0], [0.0, 0.0, 0.0, 0.0, 0.0, 0.0], [50.0, 50.0, 50.0, 100.0, 100.0, 100.0], [50.0, 100.0, 100.0, 100.0, 100.0, 100.0], [0.0, 0.0, 0.0, 0.0, 0.0, 0.0], [50.0, 0.0, 0.0, 0.0, 0.0, 0.0], [80.0, 80.0, 80.0, 100.0, 100.0, 100.0], [25.0, 50.0, 25.0, 0.0, 0.0, 0.0], [50.0, 50.0, 25.0, 0.0, 0.0, 0.0]]
[[50.0, 0.0, 0.0, 0.0, 0.0, 0.0], [100.0, 100.0, 100.0, 100.0, 100.0, 100.0], [0.0, 0.0, 0.0, 0.0, 0.0, 0.0], [50.0, 50.0, 50.0, 100.0, 100.0, 100.0], [50.0, 100.0, 100.0, 100.0, 100.0, 100.0], [0.0, 0.0, 0.0, 0.0, 0.0, 0.0], [80.0, 80.0, 80.0, 100.0, 100.0, 100.0], [25.0, 50.0, 25.0, 0.0, 0.0, 0.0], [50.0, 50.0, 25.0, 0.0, 0.0, 0.0], [50.0, 50.0, 100.0, 0.0, 0.0, 0.0]]
[[25.0, 50.0, 25.0, 0.0, 0.0, 0.0], [100.0, 100.0, 100.0, 100.0, 100.0, 100.0], [0.0, 0.0, 0.0, 0.0, 0.0, 0.0], [50.0, 50.0, 50.0, 100.0, 100.0, 100.0], [50.0, 100.0, 100.0, 100.0, 100.0, 100.0], [0.0, 0.0, 0.0, 0.0, 0.0, 0.0], [50.0, 0.0, 0.0, 0.0, 0.0, 0.0], [80.0, 80.0, 80.0, 100.0, 100.0, 100.0], [50.0, 50.0, 25.0, 0.0, 0.0, 0.0], [50.0, 50.0, 100.0, 0.0, 0.0, 0.0]]
[[50.0, 50.0, 25.0, 0.0, 0.0, 0.0], [100.0, 100.0, 100.0, 100.0, 100.0, 100.0], [0.0, 0.0, 0.0, 0.0, 0.0, 0.0], [50.0, 50.0, 50.0, 100.0, 100.0, 100.0], [50.0, 100.0, 100.0, 100.0, 100.0, 100.0], [0.0, 0.0, 0.0, 0.0, 0.0, 0.0], [50.0, 0.0, 0.0, 0.0, 0.0, 0.0], [80.0, 80.0, 80.0, 100.0, 100.0, 100.0], [25.0, 50.0, 25.0, 0.0, 0.0, 0.0], [50.0, 50.0, 100.0, 0.0, 0.0, 0.0]]
[[100.0, 100.0, 100.0, 100.0, 100.0, 100.0], [0.0, 0.0, 0.0, 0.0, 0.0, 0.0], [50.0, 50.0, 50.0, 100.0, 100.0, 100.0], [50.0, 100.0, 100.0, 100.0, 100.0, 100.0], [0.0, 0.0, 0.0, 0.0, 0.0, 0.0], [50.0, 0.0, 0.0, 0.0, 0.0, 0.0], [80.0, 80.0, 80.0, 100.0, 100.0, 100.0], [25.0, 50.0, 25.0, 0.0, 0.0, 0.0], [50.0, 50.0, 25.0, 0.0, 0.0, 0.0], [50.0, 50.0, 100.0, 0.0, 0.0, 0.0]]

