tests/data/sample/Monitor.ti3
CTI3   

DESCRIPTOR "Argyll Calibration Target chart information 3"
ORIGINATOR "Argyll dispread"
CREATED "Thu Mar  3 02:26:52 2022"
DEVICE_CLASS "DISPLAY"
SINGLE_DIM_STEPS "5"
COMP_GREY_STEPS "52"
MULTI_DIM_STEPS "5"
COLOR_REP "RGB_XYZ"
TARGET_INSTRUMENT "X-Rite i1 DisplayPro, ColorMunki Display"
DISPLAY_TYPE_REFRESH "NO"
DISPLAY_TYPE_BASE_ID "1"
INSTRUMENT_TYPE_SPECTRAL "NO"
LUMINANCE_XYZ_CDM2 "111.472593 116.993625 126.366896"
NORMALIZED_TO_Y_100 "YES"
VIDEO_LUT_CALIBRATION_POSSIBLE "YES"

BEGIN_ARGYLL_COLPROF_ARGS
b'b\'-M "Monitor 1, Output DP-1"\''
END_ARGYLL_COLPROF_ARGS

OBSERVER "1931_2"

NUMBER_OF_FIELDS 7
BEGIN_DATA_FORMAT
SAMPLE_ID RGB_R RGB_G RGB_B XYZ_X XYZ_Y XYZ_Z
END_DATA_FORMAT

NUMBER_OF_SETS 175
BEGIN_DATA
1 100.0000 100.0000 100.0000 95.28091 100.0000 108.0118
2 100.0000 100.0000 75.00000 86.58697 97.50149 61.68331
3 100.0000 100.0000 100.0000 95.28091 100.0000 108.0118
4 100.0000 100.0000 100.0000 95.28091 100.0000 108.0118
5 0.000000 0.000000 0.000000 0.128674 0.140624 0.258269
6 25.00000 0.000000 0.000000 2.518437 1.280176 0.259795
7 50.00000 0.000000 0.000000 12.49866 6.039171 0.266596
8 75.00000 0.000000 0.000000 29.76504 14.27500 0.279770
9 100.0000 0.000000 0.000000 57.61971 27.53771 0.302028
10 100.0000 0.000000 25.00000 58.42717 27.75111 4.742924
11 100.0000 25.00000 25.00000 59.48883 30.84102 5.132573
12 100.0000 50.00000 25.00000 62.34576 42.29993 6.204603
13 100.0000 75.00000 25.00000 68.32440 63.59532 8.367427
14 0.000000 0.000000 25.00000 0.923485 0.349548 4.486241
15 25.00000 0.000000 25.00000 3.365889 1.509709 4.617046
16 75.00000 0.000000 100.0000 48.76862 19.28246 101.4599
17 100.0000 0.000000 100.0000 76.59932 32.52307 101.7484
18 1.960800 1.960800 1.960800 0.140192 0.152792 0.271389
19 3.921600 3.921600 3.921600 0.177441 0.195779 0.302714
20 5.882400 5.882400 5.882400 0.241585 0.266263 0.375313
21 7.843100 7.843100 7.843100 0.386635 0.425547 0.535248
22 9.803900 9.803900 9.803900 0.566453 0.623239 0.740082
23 11.76500 11.76500 11.76500 0.872975 0.912863 1.107263
24 13.72600 13.72600 13.72600 1.235464 1.288557 1.531079
25 15.68600 15.68600 15.68600 1.684245 1.704811 2.026044
26 17.64700 17.64700 17.64700 2.054892 2.198359 2.510917
27 19.60800 19.60800 19.60800 2.515999 2.689982 3.048768
28 21.56900 21.56900 21.56900 3.032290 3.263466 3.544219
29 23.52900 23.52900 23.52900 3.655092 3.919429 4.258620
30 27.45100 27.45100 27.45100 5.318456 5.600478 6.256402
31 29.41200 29.41200 29.41200 6.220444 6.680340 7.243615
32 31.37300 31.37300 31.37300 7.242355 7.708488 8.223101
33 33.33300 33.33300 33.33300 8.405480 8.872313 9.873093
34 35.29400 35.29400 35.29400 9.554158 10.08624 11.19423
35 37.25500 37.25500 37.25500 10.75666 11.37489 12.66895
36 39.21600 39.21600 39.21600 12.08011 12.77424 14.18387
37 41.17600 41.17600 41.17600 13.33970 14.05922 15.75762
38 43.13700 43.13700 43.13700 14.73157 15.50478 17.34893
39 45.09800 45.09800 45.09800 16.29695 17.21188 19.22073
40 47.05900 47.05900 47.05900 18.01158 18.94176 20.90552
41 49.02000 49.02000 49.02000 19.74582 20.70774 22.88662
42 50.98000 50.98000 50.98000 21.60329 22.60228 25.16376
43 52.94100 52.94100 52.94100 23.47540 24.74715 26.92412
44 54.90200 54.90200 54.90200 25.51179 26.95933 29.32361
45 56.86300 56.86300 56.86300 27.85842 28.96750 31.99213
46 58.82400 58.82400 58.82400 30.15768 31.46425 34.71301
47 60.78400 60.78400 60.78400 32.35192 33.83296 37.22496
48 62.74500 62.74500 62.74500 34.10934 36.11655 39.24673
49 64.70600 64.70600 64.70600 36.61831 38.70032 41.92312
50 66.66700 66.66700 66.66700 39.12006 41.31941 44.76750
51 68.62700 68.62700 68.62700 41.76011 44.03198 47.77753
52 70.58800 70.58800 70.58800 44.26016 46.91805 51.13037
53 72.54900 72.54900 72.54900 46.77286 49.43946 53.97134
54 76.47100 76.47100 76.47100 53.08289 55.64582 61.15324
55 78.43100 78.43100 78.43100 55.96668 58.83840 64.50478
56 80.39200 80.39200 80.39200 59.33093 62.37585 68.52011
57 82.35300 82.35300 82.35300 62.62964 65.84891 72.36861
58 84.31400 84.31400 84.31400 65.95203 69.42066 76.38622
59 86.27500 86.27500 86.27500 69.16651 73.14113 79.24500
60 88.23500 88.23500 88.23500 72.64037 76.26288 83.91070
61 90.19600 90.19600 90.19600 76.39388 80.33852 88.26521
62 92.15700 92.15700 92.15700 80.48029 84.49624 92.61279
63 94.11800 94.11800 94.11800 84.21682 88.61671 95.63592
64 96.07800 96.07800 96.07800 88.00142 92.10530 99.80433
65 98.03900 98.03900 98.03900 91.90019 96.32854 103.6594
66 25.00000 25.00000 0.000000 3.391878 4.243024 0.551023
67 50.00000 25.00000 0.000000 13.42491 9.030733 0.558857
68 75.00000 25.00000 0.000000 30.85433 17.32507 0.569910
69 100.0000 25.00000 0.000000 58.42825 30.46247 0.593275
70 100.0000 50.00000 0.000000 61.49962 41.84755 1.731339
71 50.00000 50.00000 0.000000 16.65891 20.54964 1.701972
72 75.00000 50.00000 0.000000 33.85254 28.68117 1.707902
73 25.00000 50.00000 0.000000 6.602581 15.72369 1.691312
74 25.00000 75.00000 0.000000 12.40179 36.79943 3.785115
75 50.00000 75.00000 0.000000 22.41684 41.65968 3.800874
76 75.00000 75.00000 0.000000 39.81934 49.97620 3.814043
77 100.0000 75.00000 0.000000 67.28984 63.02101 3.837982
78 25.00000 100.0000 0.000000 21.09656 68.05645 6.885867
79 50.00000 100.0000 0.000000 31.22610 72.91150 6.897524
80 75.00000 100.0000 0.000000 48.74279 81.22281 6.905246
81 100.0000 100.0000 0.000000 76.23067 94.42860 6.921364
82 100.0000 100.0000 25.00000 77.12060 94.94475 11.45740
83 50.00000 0.000000 25.00000 13.35309 6.267606 4.669681
84 50.00000 25.00000 50.00000 17.70147 10.24092 23.17535
85 0.000000 25.00000 0.000000 0.938142 3.073301 0.549389
86 0.000000 25.00000 25.00000 1.736196 3.309780 4.792922
87 25.49000 25.49000 25.49000 4.357263 4.682143 5.085432
88 50.00000 25.00000 25.00000 14.24530 9.317275 4.973559
89 75.00000 25.00000 25.00000 31.69044 17.61660 5.085547
90 0.000000 50.00000 0.000000 4.100397 14.57292 1.691025
91 0.000000 50.00000 25.00000 4.979539 15.05360 5.968059
92 25.00000 50.00000 25.00000 7.473706 16.14129 6.081583
93 50.00000 50.00000 25.00000 17.58034 21.03119 6.186218
94 75.00000 50.00000 25.00000 34.83767 29.19154 6.147620
95 0.000000 75.00000 0.000000 9.974156 35.67817 3.787371
96 0.000000 75.00000 25.00000 10.81329 36.19283 8.080404
97 25.00000 75.00000 25.00000 13.32106 37.44139 8.168071
98 50.00000 75.00000 25.00000 23.42676 42.23326 8.212450
99 75.00000 75.00000 25.00000 40.75993 50.52079 8.243211
100 0.000000 100.0000 0.000000 18.53233 66.77928 6.877299
101 0.000000 100.0000 25.00000 19.42257 67.16192 11.15652
102 25.00000 100.0000 25.00000 22.00465 68.53761 11.30625
103 50.00000 100.0000 25.00000 32.21407 73.42196 11.35079
104 75.00000 100.0000 25.00000 49.50786 81.74386 11.39570
105 0.000000 0.000000 50.00000 4.283885 1.236428 22.36136
106 25.00000 0.000000 50.00000 6.756873 2.401268 22.73722
107 50.00000 0.000000 50.00000 16.70674 7.143017 22.88610
108 75.00000 0.000000 50.00000 34.10983 15.44372 22.97481
109 100.0000 0.000000 50.00000 61.71147 28.58710 23.16028
110 100.0000 0.000000 75.00000 67.95627 30.27888 55.09317
111 100.0000 25.00000 75.00000 68.53329 33.17674 55.16820
112 75.00000 0.000000 25.00000 30.63983 14.51841 4.699691
113 75.00000 25.00000 50.00000 35.06362 18.51946 23.28865
114 100.0000 25.00000 50.00000 62.60803 31.60360 23.37508
115 25.00000 25.00000 50.00000 7.622621 5.445441 23.06008
116 25.00000 50.00000 50.00000 10.87028 17.17580 24.13746
117 75.00000 50.00000 50.00000 38.34177 30.25616 24.36862
118 100.0000 50.00000 50.00000 65.86548 43.30254 24.64705
119 100.0000 50.00000 75.00000 71.80730 44.98148 56.11405
120 25.00000 75.00000 50.00000 16.77138 38.40643 26.07603
121 50.00000 75.00000 50.00000 26.89555 43.23437 26.41127
122 75.00000 75.00000 50.00000 44.40466 51.67897 26.64100
123 100.0000 75.00000 50.00000 71.78238 64.66715 26.91952
124 100.0000 75.00000 75.00000 77.84888 66.40366 58.28446
125 25.00000 100.0000 50.00000 25.47157 69.53866 29.49609
126 50.00000 100.0000 50.00000 35.62737 74.39449 29.63341
127 75.00000 100.0000 50.00000 53.15831 82.70621 29.70929
128 100.0000 100.0000 50.00000 80.46287 95.92375 29.95193
129 25.00000 0.000000 75.00000 12.62753 3.954669 54.01163
130 50.00000 0.000000 75.00000 22.72225 8.750121 54.37422
131 75.00000 0.000000 75.00000 40.07332 17.02227 54.47234
132 75.00000 25.00000 75.00000 41.06932 20.13849 54.70893
133 75.00000 50.00000 100.0000 53.13537 34.24226 102.8074
134 25.00000 25.00000 75.00000 13.54834 7.037444 54.41598
135 25.00000 50.00000 100.0000 25.78196 21.29032 102.8477
136 0.000000 25.00000 50.00000 5.124151 4.254405 22.70494
137 0.000000 25.00000 75.00000 11.00569 5.829091 53.95058
138 0.000000 50.00000 75.00000 14.24435 17.60442 55.22983
139 25.00000 50.00000 75.00000 16.90760 18.82203 55.85873
140 50.00000 50.00000 75.00000 26.86456 23.55563 55.88999
141 75.00000 50.00000 75.00000 44.18103 31.78019 55.98760
142 74.51000 74.51000 74.51000 49.65666 52.63204 57.32288
143 0.000000 75.00000 75.00000 20.14762 38.93311 57.23459
144 25.00000 75.00000 75.00000 22.74532 40.08632 57.69667
145 50.00000 75.00000 75.00000 32.84059 44.91341 57.89359
146 0.000000 75.00000 50.00000 14.19701 37.25391 25.72558
147 0.000000 100.0000 50.00000 22.90022 68.38623 29.16008
148 0.000000 100.0000 75.00000 28.77831 70.00083 60.46890
149 25.00000 100.0000 75.00000 31.36506 71.25171 60.93438
150 50.00000 100.0000 75.00000 41.60584 76.13698 61.12897
151 75.00000 100.0000 75.00000 59.13711 84.42177 61.55565
152 75.00000 100.0000 100.0000 67.83479 86.85791 108.0487
153 25.00000 0.000000 100.0000 21.61638 6.306285 101.6603
154 50.00000 0.000000 100.0000 31.56718 11.05184 101.8588
155 0.000000 0.000000 75.00000 10.17897 2.787136 53.71149
156 0.000000 0.000000 100.0000 19.10703 5.125867 101.1948
157 0.000000 25.00000 100.0000 19.97012 8.192207 101.6003
158 25.00000 25.00000 100.0000 22.47430 9.402295 101.9002
159 50.00000 25.00000 100.0000 32.53028 14.19502 102.0972
160 75.00000 25.00000 100.0000 49.97421 22.49256 102.1934
161 100.0000 25.00000 100.0000 77.50404 35.56607 102.1519
162 100.0000 50.00000 100.0000 80.75468 47.38945 103.5990
163 50.00000 25.00000 75.00000 23.65626 11.84505 54.77858
164 50.00000 50.00000 100.0000 35.78077 25.98962 102.8767
165 0.000000 50.00000 50.00000 8.346112 15.98923 23.82463
166 0.000000 50.00000 100.0000 23.18799 20.07475 102.5502
167 0.000000 75.00000 100.0000 28.95644 41.33700 104.0568
168 25.00000 75.00000 100.0000 31.64711 42.59094 105.0193
169 50.00000 75.00000 100.0000 41.75307 47.40977 104.7157
170 75.00000 75.00000 100.0000 59.20436 55.70077 105.3115
171 100.0000 75.00000 100.0000 86.68512 68.84388 105.4403
172 0.000000 100.0000 100.0000 37.61082 72.50341 107.4602
173 25.00000 100.0000 100.0000 40.23942 73.72000 107.9234
174 50.00000 100.0000 100.0000 50.48020 78.60527 108.1180
175 100.0000 100.0000 100.0000 95.41200 100.1288 108.3454
END_DATA
CAL    

DESCRIPTOR "Argyll Device Calibration State"
ORIGINATOR "Argyll dispread"
CREATED "Thu Mar  3 02:26:52 2022"
DEVICE_CLASS "DISPLAY"
COLOR_REP "RGB"

BEGIN_ARGYLL_DISPCAL_ARGS
b"b'-qv -t6500 -g2.2 -f1.0 -k0.0 -A4.0 -d1 -c1 -yn -P0.4711274060494959,1,1.0'"
END_ARGYLL_DISPCAL_ARGS


NUMBER_OF_FIELDS 4
BEGIN_DATA_FORMAT
RGB_I RGB_R RGB_G RGB_B
END_DATA_FORMAT

NUMBER_OF_SETS 256
BEGIN_DATA
0.00000000 0.00000000 0.00000000 0.00000000
0.00392157 0.00329957 0.00289892 0.00289962
0.00784314 0.00662185 0.00583572 0.00583344
0.01176470 0.00996708 0.00881115 0.00880205
0.01568630 0.01333550 0.01182600 0.01180610
0.01960780 0.01672730 0.01488100 0.01484620
0.02352940 0.02014280 0.01797700 0.01792300
0.02745100 0.02358230 0.02111480 0.02103720
0.03137250 0.02704590 0.02429530 0.02418940
0.03529410 0.03053390 0.02751930 0.02738050
0.03921570 0.03404650 0.03078780 0.03061100
0.04313730 0.03757730 0.03410010 0.03388090
0.04705880 0.04111740 0.03744690 0.03718460
0.05098040 0.04467040 0.04082240 0.04052160
0.05490200 0.04824750 0.04423070 0.04390100
0.05882350 0.05186000 0.04768240 0.04733490
0.06274510 0.05551430 0.05118800 0.05083290
0.06666670 0.05921380 0.05475430 0.05440110
0.07058820 0.06296570 0.05838290 0.05804620
0.07450980 0.06677860 0.06207270 0.06177670
0.07843140 0.07065970 0.06582150 0.06559990
0.08235290 0.07462110 0.06963320 0.06952340
0.08627450 0.07866960 0.07350920 0.07355220
0.09019610 0.08279880 0.07744300 0.07768070
0.09411760 0.08699200 0.08142430 0.08189510
0.09803920 0.09122710 0.08544260 0.08617770
0.10196100 0.09548490 0.08948650 0.09051010
0.10588200 0.09975000 0.09352860 0.09485940
0.10980400 0.10400700 0.09755680 0.09921180
0.11372500 0.10823200 0.10154800 0.10353000
0.11764700 0.11241600 0.10548600 0.10780000
0.12156900 0.11654700 0.10936400 0.11201200
0.12549000 0.12061500 0.11318600 0.11615500
0.12941200 0.12461700 0.11695400 0.12022700
0.13333300 0.12855500 0.12067100 0.12423400
0.13725500 0.13243600 0.12434300 0.12817000
0.14117600 0.13627000 0.12796700 0.13204300
0.14509800 0.14007000 0.13155500 0.13586700
0.14902000 0.14384700 0.13512100 0.13965100
0.15294100 0.14760800 0.13867400 0.14340500
0.15686300 0.15136000 0.14223400 0.14713500
0.16078400 0.15510700 0.14580800 0.15084600
0.16470600 0.15885700 0.14940800 0.15454700
0.16862700 0.16261100 0.15304800 0.15823700
0.17254900 0.16636800 0.15673200 0.16191400
0.17647100 0.17013100 0.16046000 0.16557900
0.18039200 0.17390100 0.16422500 0.16922600
0.18431400 0.17766600 0.16802100 0.17284800
0.18823500 0.18142800 0.17183900 0.17645100
0.19215700 0.18518900 0.17567600 0.18004700
0.19607800 0.18895100 0.17954200 0.18363800
0.20000000 0.19271600 0.18343100 0.18722500
0.20392200 0.19648200 0.18733600 0.19080600
0.20784300 0.20024900 0.19125200 0.19439400
0.21176500 0.20403100 0.19518600 0.19800800
0.21568600 0.20783400 0.19913700 0.20165300
0.21960800 0.21166400 0.20310900 0.20533400
0.22352900 0.21552700 0.20710600 0.20905200
0.22745100 0.21942700 0.21112400 0.21280900
0.23137300 0.22337700 0.21516500 0.21662200
0.23529400 0.22739100 0.21923000 0.22049400
0.23921600 0.23147500 0.22332400 0.22442900
0.24313700 0.23562600 0.22742800 0.22841200
0.24705900 0.23983100 0.23153900 0.23243400
0.25098000 0.24408600 0.23566000 0.23649400
0.25490200 0.24838700 0.23978600 0.24058900
0.25882400 0.25272200 0.24392000 0.24471400
0.26274500 0.25705100 0.24805300 0.24885300
0.26666700 0.26137200 0.25218400 0.25300600
0.27058800 0.26567400 0.25630600 0.25716800
0.27451000 0.26996000 0.26043200 0.26134600
0.27843100 0.27423500 0.26455700 0.26554100
0.28235300 0.27848600 0.26865700 0.26972600
0.28627500 0.28271200 0.27273400 0.27390600
0.29019600 0.28691800 0.27679100 0.27808600
0.29411800 0.29110000 0.28083500 0.28226900
0.29803900 0.29526000 0.28486800 0.28646500
0.30196100 0.29941000 0.28888900 0.29067700
0.30588200 0.30354600 0.29287700 0.29487400
0.30980400 0.30765000 0.29683200 0.29905500
0.31372500 0.31173200 0.30077100 0.30322800
0.31764700 0.31579500 0.30469000 0.30739800
0.32156900 0.31984200 0.30858900 0.31156400
0.32549000 0.32387500 0.31246700 0.31572300
0.32941200 0.32789100 0.31632000 0.31987300
0.33333300 0.33189100 0.32014900 0.32401900
0.33725500 0.33587900 0.32397100 0.32815100
0.34117600 0.33986400 0.32779100 0.33226400
0.34509800 0.34384600 0.33160700 0.33636000
0.34902000 0.34782500 0.33542000 0.34043800
0.35294100 0.35180500 0.33923000 0.34449500
0.35686300 0.35578300 0.34304000 0.34852700
0.36078400 0.35975300 0.34684800 0.35254400
0.36470600 0.36372200 0.35065800 0.35655900
0.36862700 0.36769700 0.35447700 0.36057000
0.37254900 0.37167400 0.35830500 0.36457400
0.37647100 0.37565600 0.36214100 0.36855900
0.38039200 0.37964400 0.36598400 0.37251600
0.38431400 0.38363700 0.36982400 0.37643000
0.38823500 0.38762100 0.37364600 0.38030500
0.39215700 0.39159000 0.37744700 0.38414500
0.39607800 0.39554800 0.38122500 0.38796200
0.40000000 0.39949700 0.38498600 0.39177300
0.40392200 0.40344400 0.38875000 0.39557800
0.40784300 0.40739700 0.39251900 0.39938700
0.41176500 0.41135700 0.39629600 0.40320500
0.41568600 0.41533300 0.40008600 0.40701800
0.41960800 0.41933000 0.40388200 0.41082400
0.42352900 0.42332700 0.40767700 0.41462600
0.42745100 0.42732100 0.41147100 0.41843700
0.43137300 0.43131600 0.41528600 0.42225100
0.43529400 0.43532000 0.41912400 0.42606400
0.43921600 0.43932300 0.42297600 0.42988900
0.44313700 0.44332900 0.42683700 0.43373100
0.44705900 0.44734500 0.43070700 0.43759200
0.45098000 0.45138000 0.43458500 0.44145600
0.45490200 0.45543400 0.43846400 0.44530800
0.45882400 0.45949300 0.44232400 0.44916100
0.46274500 0.46355300 0.44617900 0.45301500
0.46666700 0.46762200 0.45003300 0.45686900
0.47058800 0.47170200 0.45388700 0.46072200
0.47451000 0.47578700 0.45774300 0.46457200
0.47843100 0.47987600 0.46160000 0.46842200
0.48235300 0.48396800 0.46545900 0.47227200
0.48627500 0.48806700 0.46932200 0.47612200
0.49019600 0.49217500 0.47318900 0.47997300
0.49411800 0.49629000 0.47706100 0.48382800
0.49803900 0.50041400 0.48093800 0.48767800
0.50196100 0.50453900 0.48481000 0.49151900
0.50588200 0.50865500 0.48867200 0.49534900
0.50980400 0.51276200 0.49252500 0.49916800
0.51372500 0.51686000 0.49636800 0.50297600
0.51764700 0.52094700 0.50019900 0.50677100
0.52156900 0.52501900 0.50401700 0.51055400
0.52549000 0.52907700 0.50782400 0.51432800
0.52941200 0.53312600 0.51161800 0.51810000
0.53333300 0.53717400 0.51540600 0.52186500
0.53725500 0.54122100 0.51918300 0.52561700
0.54117600 0.54526000 0.52293800 0.52936900
0.54509800 0.54929800 0.52668100 0.53313100
0.54902000 0.55334100 0.53042300 0.53690600
0.55294100 0.55739500 0.53417000 0.54067800
0.55686300 0.56144400 0.53792600 0.54444000
0.56078400 0.56548400 0.54168900 0.54819700
0.56470600 0.56952400 0.54545700 0.55194800
0.56862700 0.57356100 0.54922600 0.55569600
0.57254900 0.57759100 0.55300300 0.55944100
0.57647100 0.58161500 0.55678700 0.56318700
0.58039200 0.58562900 0.56057800 0.56692000
0.58431400 0.58960700 0.56436800 0.57063100
0.58823500 0.59354000 0.56815300 0.57432300
0.59215700 0.59743200 0.57194100 0.57799900
0.59607800 0.60128600 0.57573500 0.58168000
0.60000000 0.60511800 0.57953800 0.58537700
0.60392200 0.60893200 0.58335100 0.58908600
0.60784300 0.61272100 0.58716400 0.59280300
0.61176500 0.61648300 0.59097300 0.59653700
0.61568600 0.62022400 0.59479800 0.60029500
0.61960800 0.62395500 0.59864800 0.60408100
0.62352900 0.62768100 0.60252600 0.60788400
0.62745100 0.63140500 0.60643200 0.61170400
0.63137300 0.63512500 0.61035900 0.61552500
0.63529400 0.63883200 0.61427800 0.61932100
0.63921600 0.64250700 0.61817700 0.62308500
0.64313700 0.64615000 0.62205100 0.62682000
0.64705900 0.64976500 0.62590100 0.63053300
0.65098000 0.65335900 0.62973600 0.63423200
0.65490200 0.65694000 0.63355100 0.63791600
0.65882400 0.66050600 0.63734700 0.64158500
0.66274500 0.66405600 0.64112800 0.64525700
0.66666700 0.66759400 0.64491200 0.64894500
0.67058800 0.67115300 0.64870000 0.65264700
0.67451000 0.67474100 0.65249100 0.65636400
0.67843100 0.67836000 0.65628300 0.66010200
0.68235300 0.68200700 0.66008400 0.66386600
0.68627500 0.68568900 0.66389100 0.66766300
0.69019600 0.68941000 0.66769500 0.67148100
0.69411800 0.69318100 0.67148400 0.67530900
0.69803900 0.69699700 0.67523900 0.67911900
0.70196100 0.70085100 0.67894800 0.68289900
0.70588200 0.70472100 0.68261400 0.68664900
0.70980400 0.70859800 0.68624400 0.69037700
0.71372500 0.71247700 0.68985900 0.69409300
0.71764700 0.71636300 0.69346400 0.69779600
0.72156900 0.72026500 0.69705500 0.70148600
0.72549000 0.72418200 0.70063800 0.70517700
0.72941200 0.72811200 0.70421800 0.70887400
0.73333300 0.73205600 0.70779600 0.71258100
0.73725500 0.73601700 0.71137400 0.71630100
0.74117600 0.74000100 0.71495500 0.72003600
0.74509800 0.74401300 0.71854000 0.72378400
0.74902000 0.74805900 0.72212500 0.72753100
0.75294100 0.75213100 0.72571000 0.73127700
0.75686300 0.75619400 0.72929300 0.73502400
0.76078400 0.76024200 0.73287900 0.73877500
0.76470600 0.76428200 0.73645900 0.74252900
0.76862700 0.76831600 0.74003600 0.74629500
0.77254900 0.77234400 0.74362300 0.75008000
0.77647100 0.77637700 0.74722600 0.75386800
0.78039200 0.78041500 0.75084700 0.75765000
0.78431400 0.78444100 0.75448100 0.76142100
0.78823500 0.78844900 0.75812500 0.76518400
0.79215700 0.79244000 0.76177900 0.76894100
0.79607800 0.79641800 0.76544300 0.77270100
0.80000000 0.80038100 0.76913000 0.77648200
0.80392200 0.80433600 0.77285500 0.78028700
0.80784300 0.80829300 0.77661700 0.78412100
0.81176500 0.81225200 0.78042100 0.78799100
0.81568600 0.81622300 0.78426500 0.79187600
0.81960800 0.82020900 0.78813200 0.79575600
0.82352900 0.82419100 0.79200300 0.79963300
0.82745100 0.82816000 0.79588600 0.80351000
0.83137300 0.83212200 0.79978200 0.80738600
0.83529400 0.83608600 0.80368400 0.81126100
0.83921600 0.84005000 0.80758900 0.81513700
0.84313700 0.84401800 0.81149700 0.81900400
0.84705900 0.84798800 0.81539600 0.82285500
0.85098000 0.85195200 0.81928200 0.82669500
0.85490200 0.85590900 0.82315600 0.83052400
0.85882400 0.85986000 0.82702600 0.83434400
0.86274500 0.86379800 0.83089100 0.83816000
0.86666700 0.86772300 0.83475700 0.84197000
0.87058800 0.87164100 0.83861900 0.84576800
0.87451000 0.87554700 0.84247600 0.84954400
0.87843100 0.87944200 0.84632500 0.85329700
0.88235300 0.88332800 0.85016400 0.85703300
0.88627500 0.88720800 0.85399100 0.86076000
0.89019600 0.89108800 0.85780200 0.86448000
0.89411800 0.89498000 0.86159500 0.86819400
0.89803900 0.89888300 0.86536300 0.87187400
0.90196100 0.90279700 0.86908900 0.87551800
0.90588200 0.90670300 0.87277900 0.87913700
0.90980400 0.91060600 0.87644600 0.88274200
0.91372500 0.91451200 0.88009600 0.88632900
0.91764700 0.91842600 0.88372200 0.88989400
0.92156900 0.92232900 0.88733000 0.89344700
0.92549000 0.92622100 0.89093300 0.89698800
0.92941200 0.93010900 0.89452500 0.90051600
0.93333300 0.93399100 0.89811100 0.90403800
0.93725500 0.93787100 0.90169300 0.90755500
0.94117600 0.94175400 0.90527100 0.91106500
0.94509800 0.94564000 0.90884500 0.91457000
0.94902000 0.94952500 0.91241400 0.91807000
0.95294100 0.95341100 0.91598000 0.92156500
0.95686300 0.95729700 0.91954300 0.92505400
0.96078400 0.96118400 0.92310200 0.92853900
0.96470600 0.96507100 0.92665500 0.93201800
0.96862700 0.96895800 0.93019700 0.93548800
0.97254900 0.97284400 0.93372500 0.93894700
0.97647100 0.97672800 0.93724100 0.94239600
0.98039200 0.98061000 0.94074300 0.94583400
0.98431400 0.98449000 0.94423200 0.94926200
0.98823500 0.98836800 0.94770700 0.95267900
0.99215700 0.99224400 0.95117000 0.95608700
0.99607800 0.99611900 0.95462000 0.95948400
1.00000000 0.99999100 0.95805700 0.96287000
END_DATA
